;FLAVOR:Marlin
;TIME:1886
;Filament used: 4.83193m
;Layer height: 0.2
;MINX:0
;MINY:0
;MINZ:0.2
;MAXX:144.102
;MAXY:140.146
;MAXZ:38.8
;TARGET_MACHINE.NAME:ELEGOO NEPTUNE 4
;Generated with Cura_SteamEngine 5.10.0
;ELEGOO NEPTUNE 4 / 4 PRO
M220 S100 ;Set the feed speed to 100%
M221 S100 ;Set the flow rate to 100%
M104 S140 ;Start heating extruder
M190 S70 ;Wait for the bed to reach print temp
G90
G28 ;home
G1 Z10 F300
G1 X67.5 Y0 F6000
G1 Z0 F300
M109 S220.0 ;Wait for extruder to reach print temp
G92 E0 ;Reset Extruder
G1 X67.5 Y0 Z0.4 F300 ;Move to start position
G1 X167.5 E30 F400 ;Draw the first line
G1 Z0.6 F120.0 ;Move to side a little
G1 X162.5 F3000
G92 E0 ;Reset Extruder
M82 ;absolute extrusion mode
G92 E0
G92 E0
G1 F2700 E-0.5
;LAYER_COUNT:194
;LAYER:0
M107
M204 S500
G0 F7200 X99.72 Y95.743 Z0.2
;TYPE:SKIRT
G1 F2700 E0
G1 F3600 X101.684 Y93.667 E0.12475
G1 X102.647 Y92.972 E0.1766
G1 X103.322 Y92.645 E0.20934
G1 X105.933 Y91.914 E0.3277
G1 X107.199 Y91.809 E0.38316
G1 X108.099 Y91.928 E0.42279
G1 X110.602 Y92.633 E0.53631
G1 X111.44 Y91.748 E0.58951
G1 X112.334 Y91.103 E0.63764
G1 X113 Y90.751 E0.67052
G1 X115.703 Y89.992 E0.79308
G1 X116.968 Y89.89 E0.84848
G1 X117.855 Y90.009 E0.88755
G1 X120.407 Y90.724 E1.00324
G1 X121.082 Y91.052 E1.03601
G1 X122.048 Y91.748 E1.08798
G1 X123.902 Y93.705 E1.20566
G1 X124.662 Y94.949 E1.2693
G1 X125.473 Y97.719 E1.3953
G1 X125.499 Y98.454 E1.4274
G1 X125.803 Y98.242 E1.44358
G1 X126.512 Y97.867 E1.47859
G1 X129.198 Y97.113 E1.60038
G1 X130.456 Y97.015 E1.65546
G1 X131.197 Y97.096 E1.688
G1 X133.939 Y97.884 E1.81255
G1 X134.535 Y98.156 E1.84115
G1 X135.525 Y98.869 E1.89441
G1 X137.375 Y100.819 E2.01175
G1 X138.146 Y102.084 E2.07642
G1 X138.951 Y104.843 E2.20188
G1 X139.013 Y106.554 E2.27662
G1 X138.665 Y107.798 E2.33301
G1 X139.168 Y107.953 E2.35599
G1 X139.719 Y108.26 E2.38352
G1 X140.615 Y108.906 E2.43174
G1 X142.469 Y110.863 E2.54942
G1 X143.229 Y112.107 E2.61306
G1 X144.04 Y114.877 E2.73906
G1 X144.102 Y116.602 E2.81441
G1 X143.298 Y119.469 E2.94439
G1 X142.532 Y120.869 E3.01406
G1 X140.511 Y122.883 E3.13861
G1 X140.562 Y123.127 E3.14949
G1 X140.62 Y124.724 E3.21926
G1 X139.816 Y127.591 E3.34924
G1 X139.05 Y128.991 E3.4189
G1 X136.975 Y131.066 E3.54701
G1 X135.631 Y131.909 E3.61626
G1 X134.048 Y132.352 E3.68802
G1 X133.728 Y133.497 E3.73992
G1 X132.962 Y134.897 E3.80959
G1 X130.887 Y136.972 E3.93769
G1 X129.543 Y137.814 E4.00692
G1 X126.752 Y138.595 E4.13344
G1 X125.51 Y138.687 E4.18781
G1 X124.486 Y138.527 E4.23305
G1 X122.135 Y137.84 E4.33998
G1 X120.859 Y137.135 E4.40361
G1 X120.663 Y136.967 E4.41488
G1 X119.178 Y138.451 E4.50653
G1 X117.834 Y139.293 E4.57576
G1 X115.043 Y140.074 E4.70228
G1 X114.075 Y140.146 E4.74466
G1 X113.046 Y140.085 E4.78966
G1 X110.426 Y139.319 E4.90882
G1 X109.087 Y138.579 E4.9756
G1 X106.888 Y136.38 E5.11136
G1 X106.15 Y135.171 E5.17319
G1 X106.079 Y134.992 E5.1816
G1 X104.979 Y135.299 E5.23145
G1 X104.011 Y135.371 E5.27383
G1 X102.982 Y135.31 E5.31883
G1 X100.362 Y134.544 E5.43799
G1 X99.023 Y133.804 E5.50477
G1 X96.824 Y131.605 E5.64053
G1 X96.05 Y130.337 E5.70538
G1 X95.268 Y127.666 E5.82687
G1 X95.163 Y126.397 E5.88246
G1 X95.298 Y125.465 E5.92357
G1 X95.382 Y125.153 E5.93768
G1 X93.407 Y123.178 E6.0596
G1 X92.633 Y121.91 E6.12445
G1 X91.852 Y119.238 E6.24598
G1 X91.738 Y117.875 E6.30569
G1 X91.929 Y116.81 E6.35292
G1 X92.58 Y114.589 E6.45395
G1 X93.283 Y113.287 E6.51855
G1 X94.68 Y111.81 E6.6073
G1 X93.922 Y109.234 E6.72452
G1 X93.808 Y107.87 E6.78427
G1 X93.999 Y106.805 E6.8315
G1 X94.65 Y104.584 E6.93254
G1 X95.353 Y103.282 E6.99713
G1 X97.317 Y101.206 E7.12188
G1 X98.204 Y100.566 E7.16963
G1 X98.197 Y100.198 E7.1857
G1 X98.366 Y99.266 E7.22705
G1 X99.017 Y97.045 E7.32808
G1 X99.72 Y95.743 E7.39268
G0 F7200 X100.149 Y96.053
G1 F3600 X102.03 Y94.065 E7.51215
G1 X102.92 Y93.423 E7.56005
G1 X103.505 Y93.139 E7.58844
G1 X106.029 Y92.433 E7.70285
G1 X107.185 Y92.337 E7.75349
G1 X107.957 Y92.434 E7.78746
G1 X110.429 Y93.127 E7.89953
G1 X110.725 Y93.267 E7.91382
G1 X111.786 Y92.146 E7.9812
G1 X112.641 Y91.529 E8.02723
G1 X113.198 Y91.24 E8.05463
G1 X115.795 Y90.511 E8.17238
G1 X116.952 Y90.418 E8.22305
G1 X117.713 Y90.515 E8.25654
G1 X120.225 Y91.219 E8.37042
G1 X120.81 Y91.503 E8.39881
G1 X121.702 Y92.146 E8.44681
G1 X123.482 Y94.025 E8.5598
G1 X124.178 Y95.164 E8.61807
G1 X124.95 Y97.802 E8.73806
G1 X125.004 Y99.297 E8.80336
G1 X124.94 Y99.614 E8.81748
G1 X125.308 Y99.239 E8.84041
G1 X126.048 Y98.706 E8.88023
G1 X126.708 Y98.357 E8.91282
G1 X129.29 Y97.632 E9.02989
G1 X130.445 Y97.542 E9.08046
G1 X131.095 Y97.613 E9.10901
G1 X133.721 Y98.362 E9.22821
G1 X134.271 Y98.613 E9.25461
G1 X135.179 Y99.267 E9.30346
G1 X136.957 Y101.141 E9.41622
G1 X137.661 Y102.296 E9.47527
G1 X138.428 Y104.926 E9.59487
G1 X138.485 Y106.491 E9.66323
G1 X138.017 Y108.162 E9.73898
G1 X138.915 Y108.413 E9.77969
G1 X139.412 Y108.686 E9.80444
G1 X140.269 Y109.304 E9.85056
G1 X142.049 Y111.183 E9.96355
G1 X142.745 Y112.322 E10.02182
G1 X143.517 Y114.96 E10.14181
G1 X143.574 Y116.538 E10.21074
G1 X142.808 Y119.27 E10.3346
G1 X142.106 Y120.553 E10.39845
G1 X140.179 Y122.48 E10.51741
G1 X139.912 Y122.664 E10.53157
G1 X140.037 Y123.146 E10.5533
G1 X140.092 Y124.66 E10.61944
G1 X139.326 Y127.392 E10.7433
G1 X138.624 Y128.675 E10.80714
G1 X136.648 Y130.651 E10.92913
G1 X135.416 Y131.424 E10.99263
G1 X133.622 Y131.926 E11.07395
G1 X133.238 Y133.298 E11.13614
G1 X132.536 Y134.581 E11.19999
G1 X130.56 Y136.557 E11.32198
G1 X129.329 Y137.329 E11.38541
G1 X126.662 Y138.075 E11.5063
G1 X125.529 Y138.159 E11.5559
G1 X124.633 Y138.023 E11.59546
G1 X122.34 Y137.353 E11.69974
G1 X121.113 Y136.675 E11.76094
G1 X120.663 Y136.225 E11.78872
G1 X118.851 Y138.036 E11.90056
G1 X117.62 Y138.808 E11.96399
G1 X114.953 Y139.554 E12.08488
G1 X114.036 Y139.622 E12.12502
G1 X113.136 Y139.564 E12.16439
G1 X110.631 Y138.832 E12.27832
G1 X109.404 Y138.154 E12.33952
G1 X107.305 Y136.055 E12.4691
G1 X106.598 Y134.897 E12.52833
G1 X106.437 Y134.347 E12.55335
G1 X104.889 Y134.779 E12.6235
G1 X103.972 Y134.847 E12.66364
G1 X103.072 Y134.789 E12.70301
G1 X100.567 Y134.057 E12.81694
G1 X99.34 Y133.379 E12.87814
G1 X97.241 Y131.28 E13.00772
G1 X96.534 Y130.122 E13.06695
G1 X95.787 Y127.569 E13.18307
G1 X95.691 Y126.416 E13.23358
G1 X95.818 Y125.54 E13.27222
G1 X95.981 Y124.964 E13.29835
G1 X95.817 Y124.846 E13.30717
G1 X93.824 Y122.853 E13.43021
G1 X93.117 Y121.695 E13.48944
G1 X92.371 Y119.141 E13.60559
G1 X92.267 Y117.9 E13.65995
G1 X92.433 Y116.958 E13.70171
G1 X93.069 Y114.788 E13.80042
G1 X93.712 Y113.597 E13.85951
G1 X95.316 Y111.902 E13.96138
G1 X95.168 Y111.624 E13.97513
G1 X94.441 Y109.136 E14.08828
G1 X94.337 Y107.895 E14.14265
G1 X94.503 Y106.953 E14.1844
G1 X95.139 Y104.783 E14.28311
G1 X95.782 Y103.592 E14.3422
G1 X97.663 Y101.604 E14.46167
G1 X98.518 Y100.987 E14.5077
G1 X98.746 Y100.869 E14.51891
G1 X98.714 Y100.29 E14.54422
G1 X98.87 Y99.414 E14.58307
G1 X99.506 Y97.244 E14.68178
G1 X100.149 Y96.053 E14.74086
G0 F7200 X100.578 Y96.363
G1 F3600 X102.376 Y94.463 E14.85506
G1 X103.192 Y93.874 E14.89899
G1 X103.687 Y93.634 E14.923
G1 X106.126 Y92.951 E15.03357
G1 X107.174 Y92.864 E15.07948
G1 X107.815 Y92.94 E15.10766
G1 X110.287 Y93.633 E15.21973
G1 X110.837 Y93.912 E15.24665
G1 X112.132 Y92.544 E15.32888
G1 X112.948 Y91.955 E15.37282
G1 X113.392 Y91.73 E15.39454
G1 X115.887 Y91.03 E15.50767
G1 X116.939 Y90.945 E15.55374
G1 X117.571 Y91.021 E15.58153
G1 X120.043 Y91.714 E15.6936
G1 X120.538 Y91.954 E15.71762
G1 X121.356 Y92.544 E15.76164
G1 X123.062 Y94.345 E15.86994
G1 X123.694 Y95.379 E15.92284
G1 X124.427 Y97.885 E16.03682
G1 X124.479 Y99.316 E16.09933
G1 X123.863 Y101.512 E16.19889
G1 X125.615 Y99.665 E16.31003
G1 X126.355 Y99.132 E16.34984
G1 X126.906 Y98.846 E16.37694
G1 X129.382 Y98.151 E16.4892
G1 X130.434 Y98.069 E16.53527
G1 X130.995 Y98.13 E16.5599
G1 X133.503 Y98.84 E16.67369
G1 X134.007 Y99.07 E16.69787
G1 X134.833 Y99.665 E16.74231
G1 X136.539 Y101.463 E16.85051
G1 X137.176 Y102.508 E16.90394
G1 X137.905 Y105.009 E17.01766
G1 X137.957 Y106.428 E17.07964
G1 X137.37 Y108.526 E17.17475
G1 X138.718 Y108.904 E17.23586
G1 X139.105 Y109.112 E17.25504
G1 X139.923 Y109.702 E17.29907
G1 X141.629 Y111.503 E17.40736
G1 X142.261 Y112.537 E17.46027
G1 X142.994 Y115.043 E17.57425
G1 X143.046 Y116.474 E17.63676
G1 X142.318 Y119.071 E17.7545
G1 X141.68 Y120.237 E17.81252
G1 X139.808 Y122.109 E17.92809
G1 X139.297 Y122.431 E17.95445
G1 X139.512 Y123.165 E17.98784
G1 X139.564 Y124.596 E18.05035
G1 X138.836 Y127.193 E18.16809
G1 X138.198 Y128.359 E18.22611
G1 X136.321 Y130.236 E18.34199
G1 X135.201 Y130.939 E18.39972
G1 X133.196 Y131.5 E18.49061
G1 X132.748 Y133.099 E18.5631
G1 X132.11 Y134.265 E18.62112
G1 X130.233 Y136.142 E18.737
G1 X129.114 Y136.844 E18.79466
G1 X126.572 Y137.555 E18.90989
G1 X125.545 Y137.631 E18.95484
G1 X124.78 Y137.519 E18.9886
G1 X122.545 Y136.866 E19.09024
G1 X121.43 Y136.25 E19.14585
G1 X120.586 Y135.406 E19.19795
G1 X120.346 Y135.799 E19.21806
G1 X118.524 Y137.621 E19.33054
G1 X117.405 Y138.323 E19.38821
G1 X114.863 Y139.034 E19.50343
G1 X113.997 Y139.098 E19.54134
G1 X113.226 Y139.043 E19.57508
G1 X110.836 Y138.345 E19.68377
G1 X109.721 Y137.729 E19.73938
G1 X107.722 Y135.73 E19.86279
G1 X107.082 Y134.682 E19.9164
G1 X106.796 Y133.701 E19.96101
G1 X104.799 Y134.259 E20.05152
G1 X103.933 Y134.323 E20.08943
G1 X103.162 Y134.268 E20.12317
G1 X100.772 Y133.57 E20.23186
G1 X99.657 Y132.954 E20.28747
G1 X97.658 Y130.955 E20.41088
G1 X97.018 Y129.907 E20.46449
G1 X96.305 Y127.471 E20.57529
G1 X96.219 Y126.433 E20.62076
G1 X96.323 Y125.683 E20.65381
G1 X96.595 Y124.724 E20.69733
G1 X96.188 Y124.475 E20.71816
G1 X94.241 Y122.528 E20.83836
G1 X93.601 Y121.48 E20.89196
G1 X92.89 Y119.044 E21.00274
G1 X92.796 Y117.923 E21.05185
G1 X92.937 Y117.106 E21.08804
G1 X93.558 Y114.987 E21.18443
G1 X94.141 Y113.907 E21.23801
G1 X95.974 Y111.97 E21.35443
G1 X95.672 Y111.477 E21.37966
G1 X94.96 Y109.039 E21.49054
G1 X94.866 Y107.918 E21.53965
G1 X95.007 Y107.101 E21.57584
G1 X95.628 Y104.982 E21.67223
G1 X96.211 Y103.902 E21.72581
G1 X98.009 Y102.002 E21.84
G1 X98.825 Y101.413 E21.88393
G1 X99.3 Y101.187 E21.9069
G1 X99.231 Y100.38 E21.94225
G1 X99.374 Y99.562 E21.9785
G1 X99.995 Y97.443 E22.0749
G1 X100.578 Y96.363 E22.12847
G1 F2700 E21.62847
G0 F7200 X111.385 Y108.175
G1 F2700 E22.12847
G1 F3600 X111.412 Y108.899 E22.1601
G1 X110.608 Y111.769 E22.29021
G1 X109.842 Y113.169 E22.35988
G1 X108.496 Y114.513 E22.44291
G1 X108.574 Y114.769 E22.45459
G1 X109.603 Y115.339 E22.50595
G1 X111.658 Y117.504 E22.63625
G1 X112.429 Y118.769 E22.70092
G1 X113.234 Y121.528 E22.82639
G1 X113.274 Y122.635 E22.87474
G1 X114.243 Y122.555 E22.91719
G1 X115.143 Y122.674 E22.95682
G1 X117.695 Y123.389 E23.07251
G1 X118.37 Y123.717 E23.10527
G1 X119.159 Y124.285 E23.14771
G1 X120.437 Y122.934 E23.2289
G1 X121.401 Y122.239 E23.28078
G1 X122.066 Y121.917 E23.31303
G1 X123.537 Y121.504 E23.37973
G1 X123.858 Y120.403 E23.42979
G1 X124.561 Y119.101 E23.49438
G1 X126.455 Y117.102 E23.6146
G1 X126.616 Y116.973 E23.6236
G1 X126.496 Y115.57 E23.68507
G1 X126.689 Y114.505 E23.73232
G1 X126.881 Y113.85 E23.76212
G1 X126.576 Y113.748 E23.77616
G1 X125.275 Y113.029 E23.84105
G1 X123.081 Y110.835 E23.9765
G1 X122.307 Y109.567 E24.04135
G1 X121.525 Y106.895 E24.16288
G1 X121.456 Y106.058 E24.19955
G1 X120.547 Y106.628 E24.24638
G1 X117.755 Y107.409 E24.37294
G1 X116.787 Y107.481 E24.41532
G1 X115.757 Y107.42 E24.46036
G1 X113.179 Y106.66 E24.57769
G1 X112.134 Y107.705 E24.6422
G1 X111.385 Y108.175 E24.6808
G0 F7200 X110.849 Y107.891
G1 F3600 X110.884 Y108.836 E24.72208
G1 X110.118 Y111.57 E24.84603
G1 X109.416 Y112.853 E24.90987
G1 X107.854 Y114.413 E25.00624
G1 X108.005 Y114.692 E25.02009
G1 X108.131 Y115.123 E25.0397
G1 X109.277 Y115.758 E25.09689
G1 X111.24 Y117.826 E25.22136
G1 X111.944 Y118.981 E25.28041
G1 X112.711 Y121.611 E25.4
G1 X112.765 Y123.093 E25.46474
G1 X112.741 Y123.271 E25.47258
G1 X113.127 Y123.174 E25.48995
G1 X114.229 Y123.083 E25.53822
G1 X115.001 Y123.18 E25.57219
G1 X117.513 Y123.884 E25.68607
G1 X118.098 Y124.168 E25.71446
G1 X118.951 Y124.783 E25.76037
G1 X119.187 Y125.019 E25.77494
G1 X120.783 Y123.332 E25.87632
G1 X121.673 Y122.69 E25.92422
G1 X122.253 Y122.409 E25.95236
G1 X123.96 Y121.93 E26.02975
G1 X124.347 Y120.603 E26.09009
G1 X124.99 Y119.412 E26.14918
G1 X126.836 Y117.463 E26.26637
G1 X127.228 Y117.17 E26.28773
G1 X127.127 Y116.788 E26.30498
G1 X127.025 Y115.596 E26.3572
G1 X127.193 Y114.653 E26.39902
G1 X127.533 Y113.493 E26.45179
G1 X126.83 Y113.288 E26.48375
G1 X125.592 Y112.604 E26.5455
G1 X123.498 Y110.51 E26.67477
G1 X122.791 Y109.352 E26.734
G1 X122.044 Y106.798 E26.85016
G1 X121.948 Y105.646 E26.90063
G1 X122.061 Y104.873 E26.93473
G1 X121.563 Y105.371 E26.96547
G1 X120.332 Y106.143 E27.02891
G1 X117.665 Y106.889 E27.1498
G1 X116.748 Y106.957 E27.18994
G1 X115.848 Y106.899 E27.22931
G1 X113.397 Y106.183 E27.34078
G1 X113.076 Y106.021 E27.35647
G1 X111.807 Y107.29 E27.43482
G1 X110.849 Y107.891 E27.48419
G0 F7200 X110.488 Y107.498
G1 F3600 X110.312 Y107.572 E27.49252
G1 X110.356 Y108.773 E27.54498
G1 X109.628 Y111.371 E27.66277
G1 X108.99 Y112.537 E27.72079
G1 X107.189 Y114.336 E27.83191
G1 X107.501 Y114.839 E27.85775
G1 X107.699 Y115.518 E27.88863
G1 X107.916 Y115.601 E27.89877
G1 X108.952 Y116.178 E27.95054
G1 X110.822 Y118.148 E28.06911
G1 X111.459 Y119.193 E28.12253
G1 X112.188 Y121.694 E28.23626
G1 X112.24 Y123.112 E28.2982
G1 X111.984 Y124.029 E28.33976
G1 X113.17 Y123.697 E28.39352
G1 X114.218 Y123.61 E28.43943
G1 X114.859 Y123.686 E28.46761
G1 X117.331 Y124.379 E28.57968
G1 X117.826 Y124.619 E28.6037
G1 X118.644 Y125.209 E28.64773
G1 X119.226 Y125.824 E28.68469
G1 X119.379 Y125.579 E28.6973
G1 X121.129 Y123.73 E28.80843
G1 X121.945 Y123.141 E28.85237
G1 X122.44 Y122.901 E28.87638
G1 X124.383 Y122.356 E28.96447
G1 X124.836 Y120.803 E29.03509
G1 X125.419 Y119.723 E29.08867
G1 X127.217 Y117.824 E29.20283
G1 X127.836 Y117.379 E29.23611
G1 X127.65 Y116.743 E29.26504
G1 X127.554 Y115.619 E29.31428
G1 X127.697 Y114.801 E29.35053
G1 X128.185 Y113.136 E29.42628
G1 X127.031 Y112.8 E29.47874
G1 X125.911 Y112.181 E29.53461
G1 X123.915 Y110.185 E29.65783
G1 X123.275 Y109.137 E29.71144
G1 X122.562 Y106.701 E29.82224
G1 X122.476 Y105.661 E29.8678
G1 X122.596 Y104.839 E29.90406
G1 X123.103 Y103.089 E29.98359
G1 X121.236 Y104.956 E30.09886
G1 X120.117 Y105.658 E30.15652
G1 X117.575 Y106.369 E30.27175
G1 X116.709 Y106.433 E30.30966
G1 X115.938 Y106.378 E30.3434
G1 X113.544 Y105.679 E30.45227
G1 X112.984 Y105.371 E30.48017
G1 X111.48 Y106.875 E30.57302
G1 X110.488 Y107.498 E30.62416
G0 F7200 X110.209 Y107.053
G1 F3600 X109.719 Y107.213 E30.64666
G1 X109.783 Y107.49 E30.65907
G1 X109.828 Y108.71 E30.71236
G1 X109.138 Y111.172 E30.82398
G1 X108.564 Y112.221 E30.87618
G1 X106.83 Y113.955 E30.98323
G1 X106.482 Y114.19 E31.00156
G1 X107.017 Y115.056 E31.046
G1 X107.272 Y115.929 E31.0857
G1 X107.661 Y116.06 E31.10362
G1 X108.627 Y116.598 E31.15189
G1 X110.404 Y118.47 E31.26456
G1 X110.974 Y119.405 E31.31237
G1 X111.665 Y121.777 E31.42022
G1 X111.712 Y123.05 E31.47583
G1 X111.226 Y124.787 E31.55457
G1 X113.267 Y124.215 E31.6471
G1 X114.208 Y124.137 E31.68832
G1 X114.717 Y124.192 E31.71067
G1 X117.189 Y124.885 E31.82274
G1 X117.519 Y125.045 E31.83875
G1 X118.298 Y125.607 E31.88068
G1 X119.344 Y126.711 E31.94707
G1 X119.76 Y125.94 E31.98531
G1 X121.475 Y124.128 E32.09423
G1 X122.252 Y123.567 E32.13606
G1 X122.582 Y123.407 E32.15207
G1 X124.805 Y122.784 E32.25285
G1 X125.325 Y121.003 E32.33385
G1 X125.848 Y120.034 E32.38192
G1 X127.563 Y118.222 E32.49083
G1 X128.444 Y117.588 E32.53821
G1 X128.169 Y116.646 E32.58105
G1 X128.083 Y115.644 E32.62495
G1 X128.201 Y114.949 E32.65573
G1 X128.837 Y112.779 E32.75444
G1 X127.236 Y112.313 E32.82723
G1 X126.228 Y111.756 E32.8775
G1 X124.33 Y109.858 E32.99468
G1 X123.76 Y108.924 E33.04245
G1 X123.081 Y106.604 E33.14797
G1 X123.004 Y105.678 E33.18853
G1 X123.1 Y104.985 E33.21908
G1 X123.74 Y102.777 E33.31943
G1 X124.248 Y101.868 E33.36489
