;FLAVOR:Marlin
;TIME:2860
;Filament used: 5.07547m
;Layer height: 0.2
;MINX:92.582
;MINY:92.022
;MINZ:0.2
;MAXX:142.427
;MAXY:137.918
;MAXZ:85.2
;TARGET_MACHINE.NAME:ELEGOO NEPTUNE 4
;Generated with Cura_SteamEngine 5.10.0
;ELEGOO NEPTUNE 4 / 4 PRO
M220 S100 ;Set the feed speed to 100%
M221 S100 ;Set the flow rate to 100%
M104 S140 ;Start heating extruder
M190 S70 ;Wait for the bed to reach print temp
G90
G28 ;home
G1 Z10 F300
G1 X67.5 Y0 F6000
G1 Z0 F300
M109 S220.0 ;Wait for extruder to reach print temp
G92 E0 ;Reset Extruder
G1 X67.5 Y0 Z0.4 F300 ;Move to start position
G1 X167.5 E30 F400 ;Draw the first line
G1 Z0.6 F120.0 ;Move to side a little
G1 X162.5 F3000
G92 E0 ;Reset Extruder
M82 ;absolute extrusion mode
G92 E0
G92 E0
G1 F2700 E-0.5
;LAYER_COUNT:426
;LAYER:0
M107
M204 S500
G0 F7200 X99.237 Y98.85 Z0.2
;TYPE:SKIRT
G1 F2700 E0
G1 F3600 X101.783 Y96.641 E0.14715
G1 X104.322 Y94.987 E0.27943
G1 X106.417 Y93.952 E0.38143
G1 X109.571 Y92.844 E0.52737
G1 X113.526 Y92.053 E0.70344
G1 X114.273 Y92.077 E0.73606
G1 X115.013 Y92.028 E0.76844
G1 X116.055 Y92.095 E0.81402
G1 X116.48 Y92.035 E0.83276
G1 X117.323 Y92.022 E0.86956
G1 X119.519 Y92.459 E0.9673
G1 X120.129 Y92.503 E0.994
G1 X121.028 Y92.701 E1.03419
G1 X124.539 Y93.934 E1.19663
G1 X126.737 Y95.021 E1.30368
G1 X129.676 Y96.99 E1.45811
G1 X131.581 Y98.663 E1.56879
G1 X131.98 Y99.07 E1.59367
G1 X137.715 Y99.1 E1.84402
G1 X138.54 Y99.218 E1.88041
G1 X139.256 Y99.459 E1.91339
G1 X140.239 Y100.001 E1.96239
G1 X141.187 Y100.791 E2.01626
G1 X142.013 Y102.119 E2.08453
G1 X142.156 Y102.519 E2.10307
G1 X142.427 Y103.748 E2.15801
G1 X142.427 Y108.665 E2.37266
G1 X142.142 Y110.085 E2.43588
G1 X141.52 Y111.182 E2.49093
G1 X140.986 Y111.878 E2.52923
G1 X140.252 Y112.481 E2.5707
G1 X140.075 Y112.593 E2.57984
G1 X139.984 Y112.728 E2.58695
G1 X139.954 Y113.406 E2.61657
G1 X139.94 Y117.056 E2.77591
G1 X140.001 Y117.219 E2.78351
G1 X140.236 Y117.492 E2.79924
G1 X140.928 Y118.087 E2.83907
G1 X141.859 Y119.289 E2.90545
G1 X142.323 Y120.623 E2.9671
G1 X142.412 Y121.414 E3.00185
G1 X142.427 Y126.156 E3.20886
G1 X142.144 Y127.574 E3.27198
G1 X141.497 Y128.745 E3.33038
G1 X140.71 Y129.689 E3.38403
G1 X139.254 Y130.592 E3.45883
G1 X137.755 Y130.927 E3.52588
G1 X131.953 Y130.946 E3.77916
G1 X131.523 Y131.39 E3.80614
G1 X129.331 Y133.277 E3.9324
G1 X127.014 Y134.816 E4.05383
G1 X123.985 Y136.289 E4.20086
G1 X121.219 Y137.194 E4.32791
G1 X118.39 Y137.737 E4.45366
G1 X115.141 Y137.918 E4.59571
G1 X112.427 Y137.718 E4.71451
G1 X109.629 Y137.156 E4.83909
G1 X106.542 Y136.1 E4.98152
G1 X104.144 Y134.911 E5.09836
G1 X101.485 Y133.135 E5.23795
G1 X99.242 Y131.155 E5.36856
G1 X97.183 Y128.773 E5.506
G1 X95.485 Y126.173 E5.64156
G1 X94.397 Y123.951 E5.74957
G1 X93.38 Y120.996 E5.88599
G1 X92.737 Y117.67 E6.03387
G1 X92.582 Y114.651 E6.16584
G1 X92.764 Y112.069 E6.27883
G1 X93.422 Y108.851 E6.42222
G1 X94.46 Y105.905 E6.55857
G1 X95.597 Y103.632 E6.66952
G1 X97.321 Y101.043 E6.8053
G1 X99.237 Y98.85 E6.93243
G0 F7200 X99.582 Y99.246
G1 F3600 X102.07 Y97.081 E7.0764
G1 X104.555 Y95.458 E7.20597
G1 X106.65 Y94.423 E7.30797
G1 X109.744 Y93.34 E7.45107
G1 X113.568 Y92.58 E7.62127
G1 X114.285 Y92.603 E7.65259
G1 X114.98 Y92.552 E7.68301
G1 X116.077 Y92.622 E7.731
G1 X116.488 Y92.56 E7.74914
G1 X117.275 Y92.548 E7.7835
G1 X119.45 Y92.981 E7.88031
G1 X120.018 Y93.016 E7.90515
G1 X120.855 Y93.197 E7.94254
G1 X124.306 Y94.405 E8.10215
G1 X126.504 Y95.492 E8.20919
G1 X129.33 Y97.385 E8.35768
G1 X131.206 Y99.03 E8.4666
G1 X131.688 Y99.522 E8.49666
G1 X131.936 Y99.595 E8.50795
G1 X137.641 Y99.62 E8.757
G1 X138.418 Y99.731 E8.79126
G1 X139.045 Y99.942 E8.82014
G1 X139.943 Y100.437 E8.8649
G1 X140.785 Y101.139 E8.91276
G1 X141.536 Y102.347 E8.97485
G1 X141.643 Y102.632 E8.98814
G1 X141.902 Y103.807 E9.04067
G1 X141.902 Y108.612 E9.25042
G1 X141.644 Y109.899 E9.30772
G1 X141.063 Y110.923 E9.35912
G1 X140.605 Y111.511 E9.39166
G1 X139.971 Y112.037 E9.42762
G1 X139.726 Y112.192 E9.44027
G1 X139.54 Y112.412 E9.45285
G1 X139.462 Y112.625 E9.46275
G1 X139.429 Y113.383 E9.49587
G1 X139.415 Y117.149 E9.66027
G1 X139.541 Y117.491 E9.67619
G1 X139.861 Y117.862 E9.69757
G1 X140.546 Y118.451 E9.73701
G1 X141.391 Y119.542 E9.79725
G1 X141.807 Y120.739 E9.85257
G1 X141.89 Y121.473 E9.88482
G1 X141.902 Y126.104 E10.08698
G1 X141.645 Y127.39 E10.14423
G1 X141.059 Y128.451 E10.19714
G1 X140.362 Y129.287 E10.24465
G1 X139.052 Y130.099 E10.31194
G1 X137.697 Y130.402 E10.37255
G1 X131.83 Y130.421 E10.62867
G1 X131.654 Y130.5 E10.63709
G1 X131.18 Y130.992 E10.66691
G1 X128.988 Y132.879 E10.79317
G1 X126.784 Y134.344 E10.9087
G1 X123.821 Y135.79 E11.05263
G1 X121.12 Y136.678 E11.17675
G1 X118.291 Y137.221 E11.3025
G1 X115.18 Y137.394 E11.43852
G1 X112.466 Y137.194 E11.55732
G1 X109.799 Y136.659 E11.67606
G1 X106.712 Y135.603 E11.81849
G1 X104.436 Y134.474 E11.92939
G1 X101.777 Y132.698 E12.06898
G1 X99.639 Y130.811 E12.19347
G1 X97.622 Y128.485 E12.32786
G1 X95.957 Y125.942 E12.46055
G1 X94.869 Y123.72 E12.56856
G1 X93.877 Y120.826 E12.70211
G1 X93.261 Y117.642 E12.84368
G1 X93.106 Y114.688 E12.97281
G1 X93.288 Y112.106 E13.0858
G1 X93.917 Y109.025 E13.22308
G1 X94.93 Y106.14 E13.35656
G1 X96.067 Y103.867 E13.4675
G1 X97.758 Y101.334 E13.60045
G1 X99.582 Y99.246 E13.72149
G0 F7200 X99.927 Y99.642
G1 F3600 X102.358 Y97.52 E13.86235
G1 X104.788 Y95.929 E13.98914
G1 X106.883 Y94.894 E14.09115
G1 X109.846 Y93.855 E14.22822
G1 X113.61 Y93.107 E14.39575
G1 X114.293 Y93.129 E14.42558
G1 X114.946 Y93.076 E14.45418
G1 X116.103 Y93.15 E14.50479
G1 X116.496 Y93.085 E14.52218
G1 X117.227 Y93.074 E14.55409
G1 X119.383 Y93.503 E14.65005
G1 X119.91 Y93.53 E14.67309
G1 X120.682 Y93.693 E14.70753
G1 X124.073 Y94.876 E14.86431
G1 X126.271 Y95.963 E14.97136
G1 X128.984 Y97.78 E15.1139
G1 X130.831 Y99.397 E15.22106
G1 X131.328 Y99.905 E15.25208
G1 X131.477 Y100.008 E15.25999
G1 X131.86 Y100.12 E15.27741
G1 X137.567 Y100.14 E15.52655
G1 X138.296 Y100.244 E15.55869
G1 X138.832 Y100.424 E15.58337
G1 X139.649 Y100.875 E15.62411
G1 X140.383 Y101.487 E15.66583
G1 X141.063 Y102.581 E15.72206
G1 X141.13 Y102.745 E15.7298
G1 X141.377 Y103.866 E15.77991
G1 X141.377 Y108.559 E15.98477
G1 X141.146 Y109.713 E16.03615
G1 X140.649 Y110.6 E16.08054
G1 X140.224 Y111.145 E16.11071
G1 X139.69 Y111.593 E16.14113
G1 X139.379 Y111.79 E16.1572
G1 X139.079 Y112.143 E16.17743
G1 X138.94 Y112.523 E16.19509
G1 X138.904 Y113.36 E16.23166
G1 X138.891 Y117.036 E16.39214
G1 X138.924 Y117.332 E16.40514
G1 X139.081 Y117.761 E16.42508
G1 X139.49 Y118.235 E16.45241
G1 X140.164 Y118.815 E16.49123
G1 X140.923 Y119.795 E16.54534
G1 X141.291 Y120.855 E16.59432
G1 X141.368 Y121.532 E16.62407
G1 X141.377 Y126.052 E16.82138
G1 X141.146 Y127.206 E16.87276
G1 X140.621 Y128.157 E16.92018
G1 X140.014 Y128.885 E16.96156
G1 X138.85 Y129.607 E17.02135
G1 X137.64 Y129.877 E17.07547
G1 X131.766 Y129.896 E17.3319
G1 X131.53 Y129.955 E17.34251
G1 X131.32 Y130.09 E17.35341
G1 X130.837 Y130.594 E17.38389
G1 X128.645 Y132.481 E17.51015
G1 X126.553 Y133.873 E17.61984
G1 X123.656 Y135.292 E17.76066
G1 X121.02 Y136.163 E17.88185
G1 X118.261 Y136.697 E18.00453
G1 X115.219 Y136.87 E18.13754
G1 X112.505 Y136.67 E18.25634
G1 X109.969 Y136.162 E18.36924
G1 X106.882 Y135.106 E18.51167
G1 X104.728 Y134.037 E18.61664
G1 X102.069 Y132.261 E18.75623
G1 X100.036 Y130.467 E18.87459
G1 X98.019 Y128.141 E19.00899
G1 X96.429 Y125.711 E19.13576
G1 X95.341 Y123.489 E19.24376
G1 X94.374 Y120.656 E19.37444
G1 X93.785 Y117.614 E19.5097
G1 X93.63 Y114.725 E19.636
G1 X93.812 Y112.143 E19.74899
G1 X94.413 Y109.198 E19.8802
G1 X95.4 Y106.375 E20.01075
G1 X96.537 Y104.102 E20.1217
G1 X98.194 Y101.626 E20.25176
G1 X99.927 Y99.642 E20.36676
G0 F7200 X100.272 Y100.038
G1 F3600 X102.703 Y97.916 E20.50762
G1 X105.021 Y96.4 E20.62853
G1 X107.116 Y95.365 E20.73054
G1 X109.948 Y94.37 E20.86158
G1 X113.652 Y93.634 E21.02643
G1 X114.308 Y93.655 E21.05508
G1 X114.912 Y93.6 E21.08156
G1 X116.131 Y93.678 E21.13488
G1 X116.504 Y93.61 E21.15143
G1 X117.179 Y93.6 E21.1809
G1 X119.324 Y94.027 E21.27638
G1 X119.804 Y94.044 E21.29734
G1 X120.51 Y94.189 E21.32881
G1 X123.84 Y95.347 E21.48271
G1 X126.038 Y96.434 E21.58976
G1 X128.638 Y98.175 E21.72635
G1 X130.485 Y99.792 E21.83352
G1 X130.99 Y100.31 E21.8651
G1 X131.247 Y100.488 E21.87874
G1 X131.784 Y100.645 E21.90317
G1 X137.493 Y100.66 E22.15239
G1 X138.222 Y100.764 E22.18453
G1 X138.578 Y100.884 E22.20093
G1 X139.355 Y101.313 E22.23968
G1 X139.981 Y101.835 E22.27526
G1 X140.617 Y102.858 E22.32785
G1 X140.852 Y103.925 E22.37554
G1 X140.852 Y108.506 E22.57552
G1 X140.647 Y109.529 E22.62107
G1 X140.235 Y110.277 E22.65834
G1 X139.844 Y110.778 E22.68609
G1 X139.352 Y111.191 E22.71413
G1 X139.033 Y111.387 E22.73047
G1 X138.618 Y111.875 E22.75844
G1 X138.418 Y112.42 E22.78378
G1 X138.379 Y113.338 E22.82389
G1 X138.366 Y117.066 E22.98663
G1 X138.407 Y117.433 E23.00275
G1 X138.506 Y117.78 E23.01851
G1 X138.64 Y118.053 E23.03178
G1 X139.122 Y118.611 E23.06397
G1 X139.784 Y119.181 E23.10211
G1 X140.454 Y120.047 E23.1499
G1 X140.776 Y120.972 E23.19266
G1 X140.846 Y121.591 E23.21985
G1 X140.852 Y125.999 E23.41228
G1 X140.647 Y127.022 E23.45783
G1 X140.183 Y127.863 E23.49976
G1 X139.666 Y128.483 E23.535
G1 X138.648 Y129.115 E23.5873
G1 X137.584 Y129.352 E23.63489
G1 X131.702 Y129.371 E23.89166
G1 X131.317 Y129.467 E23.90899
G1 X130.984 Y129.682 E23.92629
G1 X130.494 Y130.196 E23.95729
G1 X128.302 Y132.083 E24.08355
G1 X126.263 Y133.435 E24.19035
G1 X123.491 Y134.794 E24.32512
G1 X120.919 Y135.648 E24.44343
G1 X118.231 Y136.173 E24.56298
G1 X115.258 Y136.346 E24.69299
G1 X112.544 Y136.146 E24.81178
G1 X110.138 Y135.665 E24.91889
G1 X107.115 Y134.635 E25.05831
G1 X105.02 Y133.6 E25.16032
G1 X102.361 Y131.824 E25.2999
G1 X100.433 Y130.123 E25.41214
G1 X98.416 Y127.797 E25.54654
G1 X96.9 Y125.479 E25.66745
G1 X95.838 Y123.319 E25.77252
G1 X94.871 Y120.486 E25.9032
G1 X94.309 Y117.585 E26.0322
G1 X94.154 Y114.762 E26.15562
G1 X94.336 Y112.18 E26.26861
G1 X94.909 Y109.371 E26.39376
G1 X95.87 Y106.61 E26.52138
G1 X97.007 Y104.337 E26.63233
G1 X98.59 Y101.971 E26.7566
G1 X100.272 Y100.038 E26.86845
G0 F7200 X100.668 Y100.383
G1 F3600 X102.991 Y98.355 E27.00307
G1 X105.254 Y96.871 E27.1212
G1 X107.349 Y95.836 E27.22321
G1 X110.05 Y94.885 E27.34822
G1 X113.694 Y94.161 E27.5104
G1 X114.322 Y94.181 E27.53783
G1 X114.879 Y94.124 E27.56227
G1 X116.167 Y94.206 E27.61861
G1 X116.512 Y94.135 E27.63399
G1 X117.131 Y94.126 E27.66101
G1 X119.268 Y94.551 E27.75613
G1 X119.702 Y94.559 E27.77508
G1 X120.338 Y94.685 E27.80338
G1 X123.607 Y95.818 E27.95441
G1 X125.805 Y96.905 E28.06146
G1 X128.292 Y98.57 E28.19211
G1 X130.139 Y100.187 E28.29927
G1 X130.651 Y100.715 E28.33138
G1 X131.017 Y100.968 E28.3508
G1 X131.639 Y101.149 E28.37908
G1 X132.18 Y101.171 E28.40271
G1 X137.419 Y101.18 E28.63142
G1 X138.148 Y101.284 E28.66356
G1 X138.324 Y101.344 E28.67168
G1 X139.061 Y101.751 E28.70843
G1 X139.579 Y102.183 E28.73788
G1 X140.123 Y103.058 E28.78286
G1 X140.327 Y103.984 E28.82425
G1 X140.327 Y108.453 E29.01934
G1 X140.148 Y109.347 E29.05914
G1 X139.775 Y110.024 E29.09288
G1 X139.465 Y110.41 E29.11449
G1 X139.014 Y110.789 E29.14021
G1 X138.69 Y110.98 E29.15663
G1 X138.157 Y111.607 E29.19255
G1 X137.896 Y112.317 E29.22558
G1 X137.854 Y113.316 E29.26922
G1 X137.841 Y117.097 E29.43428
G1 X137.89 Y117.534 E29.45348
G1 X138.014 Y117.968 E29.47318
G1 X138.197 Y118.343 E29.4914
G1 X138.754 Y118.987 E29.52857
G1 X139.404 Y119.547 E29.56602
G1 X139.986 Y120.3 E29.60757
G1 X140.26 Y121.088 E29.64398
G1 X140.324 Y121.65 E29.66868
G1 X140.327 Y125.946 E29.85621
G1 X140.148 Y126.84 E29.89602
G1 X139.749 Y127.564 E29.9321
G1 X139.316 Y128.082 E29.96157
G1 X138.446 Y128.623 E30.0063
G1 X137.528 Y128.827 E30.04735
G1 X131.637 Y128.846 E30.30452
G1 X131.106 Y128.979 E30.32841
G1 X130.645 Y129.276 E30.35235
G1 X130.151 Y129.799 E30.38376
G1 X128.012 Y131.645 E30.5071
G1 X125.973 Y132.997 E30.6139
G1 X123.325 Y134.296 E30.74265
G1 X120.817 Y135.133 E30.85807
G1 X118.2 Y135.649 E30.97452
G1 X115.297 Y135.822 E31.10147
G1 X112.583 Y135.622 E31.22027
G1 X110.242 Y135.15 E31.32452
G1 X107.348 Y134.164 E31.45798
G1 X105.253 Y133.129 E31.55999
G1 X102.708 Y131.43 E31.69357
G1 X100.829 Y129.778 E31.80279
G1 X98.855 Y127.509 E31.93408
G1 X97.371 Y125.246 E32.05221
G1 X96.335 Y123.149 E32.15432
G1 X95.368 Y120.316 E32.285
G1 X94.833 Y117.556 E32.40772
G1 X94.678 Y114.799 E32.52827
G1 X94.86 Y112.217 E32.64126
G1 X95.405 Y109.543 E32.76039
G1 X96.34 Y106.845 E32.88504
G1 X97.477 Y104.572 E32.99599
G1 X98.986 Y102.316 E33.11447
G1 X100.668 Y100.383 E33.22633
G0 F7200 X101.064 Y100.728
G1 F3600 X103.279 Y98.794 E33.35469
G1 X105.487 Y97.342 E33.47006
G1 X107.582 Y96.307 E33.57206
G1 X109.621 Y95.595 E33.66634
G1 X110.152 Y95.4 E33.69104
G1 X113.736 Y94.688 E33.85055
G1 X114.339 Y94.707 E33.87689
G1 X114.846 Y94.648 E33.89917
G1 X116.217 Y94.735 E33.95914
G1 X116.519 Y94.66 E33.97272
G1 X117.083 Y94.652 E33.99735
G1 X119.217 Y95.076 E34.09233
G1 X119.605 Y95.075 E34.10926
G1 X120.167 Y95.181 E34.13423
G1 X123.374 Y96.289 E34.28235
G1 X125.572 Y97.376 E34.38939
G1 X127.946 Y98.965 E34.5141
G1 X129.762 Y100.553 E34.61941
G1 X130.307 Y101.114 E34.65355
G1 X130.77 Y101.435 E34.67815
G1 X131.168 Y101.587 E34.69674
G1 X131.577 Y101.672 E34.71498
G1 X132.158 Y101.696 E34.74036
G1 X137.418 Y101.705 E34.96998
G1 X138.07 Y101.803 E34.99877
G1 X138.763 Y102.186 E35.03333
G1 X139.177 Y102.531 E35.05686
G1 X139.629 Y103.258 E35.09423
G1 X139.802 Y104.043 E35.12932
G1 X139.802 Y108.4 E35.31952
G1 X139.649 Y109.165 E35.35357
G1 X139.315 Y109.771 E35.38378
G1 X139.127 Y110.008 E35.39699
G1 X138.676 Y110.387 E35.4227
G1 X138.367 Y110.559 E35.43814
G1 X138.012 Y110.929 E35.46052
G1 X137.69 Y111.354 E35.4838
G1 X137.453 Y112 E35.51384
G1 X137.369 Y112.342 E35.52921
G1 X137.329 Y113.294 E35.57081
G1 X137.316 Y117.128 E35.73818
G1 X137.373 Y117.635 E35.76045
G1 X137.521 Y118.153 E35.78397
G1 X137.756 Y118.637 E35.80746
G1 X138.382 Y119.36 E35.8492
G1 X139.024 Y119.913 E35.88619
G1 X139.518 Y120.552 E35.92145
G1 X139.744 Y121.203 E35.95153
G1 X139.802 Y121.71 E35.97381
G1 X139.802 Y125.893 E36.15642
G1 X139.649 Y126.658 E36.19047
G1 X139.315 Y127.264 E36.22068
G1 X138.966 Y127.681 E36.24442
G1 X138.246 Y128.129 E36.28144
G1 X137.467 Y128.302 E36.31627
G1 X131.9 Y128.32 E36.55929
G1 X131.452 Y128.351 E36.5789
G1 X130.895 Y128.491 E36.60397
G1 X130.305 Y128.871 E36.6346
G1 X129.807 Y129.402 E36.66638
G1 X127.722 Y131.207 E36.78677
G1 X125.683 Y132.559 E36.89357
G1 X123.158 Y133.798 E37.01635
G1 X120.714 Y134.618 E37.12889
G1 X118.168 Y135.125 E37.24221
G1 X115.335 Y135.298 E37.36611
G1 X112.687 Y135.107 E37.48201
G1 X110.346 Y134.635 E37.58626
G1 X107.581 Y133.693 E37.71378
G1 X105.486 Y132.658 E37.81578
G1 X103.054 Y131.035 E37.94342
G1 X101.225 Y129.433 E38.04956
G1 X99.294 Y127.221 E38.17774
G1 X97.842 Y125.013 E38.2931
G1 X96.806 Y122.916 E38.3952
G1 X95.865 Y120.147 E38.52287
G1 X95.357 Y117.526 E38.63942
G1 X95.202 Y114.836 E38.75704
G1 X95.384 Y112.254 E38.87004
G1 X95.901 Y109.714 E38.98319
G1 X96.81 Y107.08 E39.10483
G1 X97.947 Y104.807 E39.21578
G1 X99.382 Y102.661 E39.32847
G1 X101.064 Y100.728 E39.44033
G0 F7200 X101.46 Y101.073
G1 F3600 X103.568 Y99.232 E39.5625
G1 X105.72 Y97.813 E39.67503
G1 X107.815 Y96.778 E39.77704
G1 X109.793 Y96.091 E39.86845
G1 X110.254 Y95.915 E39.88999
G1 X113.778 Y95.215 E40.04683
G1 X114.364 Y95.233 E40.07242
G1 X114.813 Y95.172 E40.0922
G1 X116.279 Y95.265 E40.15633
G1 X116.54 Y95.185 E40.16825
G1 X116.981 Y95.167 E40.18751
G1 X119.175 Y95.603 E40.28516
G1 X119.514 Y95.592 E40.29997
G1 X119.996 Y95.677 E40.32134
G1 X123.141 Y96.76 E40.46654
G1 X125.339 Y97.847 E40.57358
G1 X127.6 Y99.36 E40.69234
G1 X129.416 Y100.948 E40.79765
G1 X129.967 Y101.517 E40.83223
G1 X130.524 Y101.904 E40.86184
G1 X131.018 Y102.092 E40.88491
G1 X131.515 Y102.195 E40.90707
G1 X132.136 Y102.221 E40.9342
G1 X137.34 Y102.224 E41.16138
G1 X137.897 Y102.308 E41.18597
G1 X138.509 Y102.646 E41.21649
G1 X138.776 Y102.88 E41.23199
G1 X139.135 Y103.458 E41.26169
