;FLAVOR:Marlin
;TIME:1441
;Filament used: 2.36553m
;Layer height: 0.2
;MINX:91.122
;MINY:93.762
;MINZ:0.2
;MAXX:143.936
;MAXY:142.948
;MAXZ:34.4
;TARGET_MACHINE.NAME:ELEGOO NEPTUNE 4
;Generated with Cura_SteamEngine 5.10.0
;ELEGOO NEPTUNE 4 / 4 PRO
M220 S100 ;Set the feed speed to 100%
M221 S100 ;Set the flow rate to 100%
M104 S140 ;Start heating extruder
M190 S70 ;Wait for the bed to reach print temp
G90
G28 ;home
G1 Z10 F300
G1 X67.5 Y0 F6000
G1 Z0 F300
M109 S220.0 ;Wait for extruder to reach print temp
G92 E0 ;Reset Extruder
G1 X67.5 Y0 Z0.4 F300 ;Move to start position
G1 X167.5 E30 F400 ;Draw the first line
G1 Z0.6 F120.0 ;Move to side a little
G1 X162.5 F3000
G92 E0 ;Reset Extruder
M82 ;absolute extrusion mode
G92 E0
G92 E0
G1 F2700 E-0.5
;LAYER_COUNT:172
;LAYER:0
M107
M204 S500
G0 F7200 X98.219 Y102.334 Z0.2
;TYPE:SKIRT
G1 F2700 E0
G1 F3600 X99.119 Y101.685 E0.04844
G1 X99.79 Y101.33 E0.08158
G1 X101.248 Y100.923 E0.14766
G1 X101.507 Y100.04 E0.18783
G1 X102.21 Y98.738 E0.25242
G1 X104.174 Y96.662 E0.37718
G1 X105.137 Y95.967 E0.42902
G1 X105.813 Y95.639 E0.46182
G1 X108.423 Y94.907 E0.58015
G1 X109.712 Y94.808 E0.63659
G1 X110.446 Y94.886 E0.66881
G1 X111.439 Y95.165 E0.71384
G1 X111.841 Y94.895 E0.73498
G1 X112.453 Y94.599 E0.76465
G1 X115.067 Y93.865 E0.88318
G1 X116.312 Y93.762 E0.93771
G1 X117.131 Y93.872 E0.97379
G1 X119.657 Y94.582 E1.08833
G1 X119.886 Y94.682 E1.09924
G1 X121.964 Y94.095 E1.1935
G1 X123.214 Y93.993 E1.24825
G1 X124.111 Y94.112 E1.28775
G1 X126.663 Y94.827 E1.40345
G1 X127.338 Y95.155 E1.43621
G1 X128.308 Y95.854 E1.4884
G1 X129.311 Y96.915 E1.55214
G1 X129.507 Y96.945 E1.56079
G1 X132.015 Y97.653 E1.67456
G1 X132.642 Y97.933 E1.70453
G1 X133.666 Y98.673 E1.75968
G1 X135.517 Y100.626 E1.87715
G1 X136.277 Y101.87 E1.94079
G1 X136.636 Y103.101 E1.99676
G1 X136.858 Y103.17 E2.00691
G1 X137.534 Y103.472 E2.03923
G1 X138.521 Y104.183 E2.09233
G1 X140.514 Y106.284 E2.21875
G1 X141.274 Y107.528 E2.28239
G1 X142.136 Y110.477 E2.41651
G1 X142.198 Y112.194 E2.49151
G1 X141.341 Y115.262 E2.63057
G1 X140.615 Y116.587 E2.69653
G1 X140.239 Y116.993 E2.72068
G1 X142.111 Y118.968 E2.83947
G1 X142.871 Y120.212 E2.90311
G1 X143.874 Y123.642 E3.05912
G1 X143.936 Y125.363 E3.13429
G1 X142.938 Y128.928 E3.2959
G1 X142.178 Y130.317 E3.36502
G1 X139.598 Y132.897 E3.5243
G1 X138.265 Y133.733 E3.59299
G1 X134.786 Y134.707 E3.7507
G1 X133.667 Y134.779 E3.79965
G1 X132.782 Y134.715 E3.83838
G1 X129.57 Y133.778 E3.98444
G1 X129.362 Y133.678 E3.99452
G1 X128.449 Y136.938 E4.14231
G1 X127.689 Y138.327 E4.21143
G1 X125.003 Y141.013 E4.37725
G1 X123.67 Y141.849 E4.44594
G1 X120.047 Y142.863 E4.61017
G1 X118.9 Y142.948 E4.66038
G1 X117.958 Y142.848 E4.70173
G1 X114.631 Y141.877 E4.85303
G1 X113.281 Y141.131 E4.92036
G1 X110.515 Y138.365 E5.09112
G1 X109.69 Y137.068 E5.15823
G1 X108.667 Y133.561 E5.3177
G1 X108.557 Y132.324 E5.37191
G1 X108.69 Y131.376 E5.4137
G1 X108.79 Y131.026 E5.42959
G1 X107.291 Y132.525 E5.52213
G1 X105.948 Y133.367 E5.59133
G1 X102.42 Y134.354 E5.75126
G1 X101.453 Y134.426 E5.79359
G1 X100.424 Y134.365 E5.83859
G1 X97.114 Y133.399 E5.98911
G1 X95.759 Y132.655 E6.05659
G1 X93.062 Y129.958 E6.22309
G1 X92.237 Y128.661 E6.29019
G1 X91.238 Y125.247 E6.44548
G1 X91.122 Y123.884 E6.50519
G1 X91.302 Y122.883 E6.54959
G1 X92.172 Y119.889 E6.6857
G1 X92.875 Y118.585 E6.75037
G1 X95.433 Y115.887 E6.91267
G1 X96.712 Y115.058 E6.9792
G1 X96.324 Y114.653 E7.00369
G1 X95.529 Y113.403 E7.06836
G1 X94.703 Y110.576 E7.19692
G1 X94.593 Y109.33 E7.25153
G1 X94.742 Y108.31 E7.29653
G1 X95.456 Y105.822 E7.40952
G1 X96.169 Y104.494 E7.47532
G1 X98.219 Y102.334 E7.60532
G0 F7200 X98.565 Y102.732
G1 F3600 X99.426 Y102.111 E7.65166
G1 X99.985 Y101.821 E7.67915
G1 X101.67 Y101.351 E7.75552
G1 X101.996 Y100.239 E7.80611
G1 X102.639 Y99.048 E7.86519
G1 X104.52 Y97.06 E7.98466
G1 X105.41 Y96.418 E8.03257
G1 X105.995 Y96.134 E8.06096
G1 X108.52 Y95.426 E8.17544
G1 X109.702 Y95.335 E8.22719
G1 X110.349 Y95.404 E8.25559
G1 X111.536 Y95.737 E8.30941
G1 X112.069 Y95.368 E8.33771
G1 X112.642 Y95.091 E8.36549
G1 X115.159 Y94.384 E8.47962
G1 X116.297 Y94.29 E8.52947
G1 X116.989 Y94.377 E8.55991
G1 X119.515 Y95.087 E8.67446
G1 X119.838 Y95.241 E8.69008
G1 X122.058 Y94.614 E8.79078
G1 X123.199 Y94.521 E8.84076
G1 X123.969 Y94.618 E8.87463
G1 X126.481 Y95.322 E8.98852
G1 X127.066 Y95.606 E9.01691
G1 X127.958 Y96.249 E9.06491
G1 X129.059 Y97.414 E9.13488
G1 X129.364 Y97.45 E9.14829
G1 X131.872 Y98.158 E9.26205
G1 X132.377 Y98.389 E9.28629
G1 X133.319 Y99.07 E9.33704
G1 X135.097 Y100.946 E9.44987
G1 X135.793 Y102.085 E9.50814
G1 X136.213 Y103.526 E9.57366
G1 X136.644 Y103.649 E9.59323
G1 X137.269 Y103.928 E9.62311
G1 X138.175 Y104.581 E9.67186
G1 X140.094 Y106.604 E9.79358
G1 X140.79 Y107.743 E9.85185
G1 X141.613 Y110.56 E9.97997
G1 X141.67 Y112.132 E10.04864
G1 X140.85 Y115.066 E10.18162
G1 X140.155 Y116.335 E10.24479
G1 X139.507 Y116.983 E10.28479
G1 X141.691 Y119.288 E10.42341
G1 X142.387 Y120.427 E10.48168
G1 X143.351 Y123.725 E10.63167
G1 X143.408 Y125.299 E10.70043
G1 X142.448 Y128.729 E10.85592
G1 X141.752 Y130.001 E10.91921
G1 X139.271 Y132.482 E11.07238
G1 X138.05 Y133.248 E11.1353
G1 X134.697 Y134.186 E11.28729
G1 X133.705 Y134.255 E11.3307
G1 X132.874 Y134.195 E11.36707
G1 X129.717 Y133.274 E11.51063
G1 X128.949 Y132.85 E11.54893
G1 X128.938 Y133.242 E11.56605
G1 X127.959 Y136.739 E11.72458
G1 X127.263 Y138.011 E11.78787
G1 X124.676 Y140.598 E11.94758
G1 X123.455 Y141.364 E12.01051
G1 X119.957 Y142.343 E12.16907
G1 X118.906 Y142.421 E12.21508
G1 X118.06 Y142.331 E12.25222
G1 X114.836 Y141.39 E12.39883
G1 X113.598 Y140.706 E12.46058
G1 X110.928 Y138.036 E12.62541
G1 X110.173 Y136.849 E12.68682
G1 X109.185 Y133.463 E12.8408
G1 X109.085 Y132.336 E12.89019
G1 X109.195 Y131.521 E12.92609
G1 X110.044 Y128.557 E13.06068
G1 X109.457 Y129.617 E13.11358
G1 X106.964 Y132.11 E13.26749
G1 X105.733 Y132.882 E13.33092
G1 X102.33 Y133.834 E13.48518
G1 X101.414 Y133.902 E13.52527
G1 X100.514 Y133.844 E13.56464
G1 X97.314 Y132.91 E13.71016
G1 X96.078 Y132.232 E13.77171
G1 X93.475 Y129.629 E13.9324
G1 X92.72 Y128.442 E13.99382
G1 X91.757 Y125.15 E14.14355
G1 X91.651 Y123.91 E14.19787
G1 X91.819 Y122.976 E14.2393
G1 X92.661 Y120.088 E14.37062
G1 X93.304 Y118.896 E14.42975
G1 X95.769 Y116.296 E14.58615
G1 X97.04 Y115.472 E14.65227
G1 X97.686 Y115.29 E14.68157
G1 X96.767 Y114.371 E14.73831
G1 X96.012 Y113.184 E14.79972
G1 X95.221 Y110.478 E14.92279
G1 X95.121 Y109.346 E14.9724
G1 X95.247 Y108.455 E15.01168
G1 X95.947 Y106.016 E15.12245
G1 X96.597 Y104.806 E15.18241
G1 X98.565 Y102.732 E15.30722
G1 F2700 E14.80722
G0 F7200 X112.248 Y111.832
G1 F2700 E15.30722
G1 F3600 X111.858 Y113.234 E15.37075
G1 X111.087 Y114.642 E15.44082
G1 X108.963 Y116.766 E15.57195
G1 X108.506 Y117.069 E15.59589
G1 X109.833 Y118.471 E15.68016
G1 X110.593 Y119.715 E15.7438
G1 X111.61 Y123.192 E15.90194
G1 X111.672 Y124.91 E15.97699
G1 X111.482 Y125.591 E16.00785
G1 X112.951 Y124.042 E16.10104
G1 X114.35 Y123.135 E16.17383
G1 X117.999 Y122.11 E16.33929
G1 X119.354 Y122.006 E16.39861
G1 X119.978 Y122.082 E16.42605
G1 X123.372 Y123.033 E16.57992
G1 X123.789 Y123.232 E16.60009
G1 X124.619 Y120.383 E16.72963
G1 X125.325 Y119.077 E16.79444
G1 X126.623 Y117.711 E16.8767
G1 X125.634 Y116.725 E16.93766
G1 X124.803 Y115.419 E17.00524
G1 X124.167 Y113.247 E17.10404
G1 X123.408 Y112.83 E17.14184
G1 X122.078 Y111.499 E17.22398
G1 X121.771 Y111.452 E17.23754
G1 X119.564 Y110.807 E17.33791
G1 X119.274 Y110.673 E17.35186
G1 X117.105 Y111.279 E17.45017
G1 X115.987 Y111.351 E17.49908
G1 X115.103 Y111.288 E17.53776
G1 X114.135 Y111.006 E17.58178
G1 X113.28 Y111.543 E17.62585
G1 X112.248 Y111.832 E17.67264
G0 F7200 X111.821 Y111.406
G1 F3600 X111.368 Y113.037 E17.74653
G1 X110.663 Y114.324 E17.81059
G1 X108.592 Y116.395 E17.93845
G1 X107.684 Y116.965 E17.98525
G1 X109.413 Y118.791 E18.09502
G1 X110.109 Y119.93 E18.15329
G1 X111.087 Y123.275 E18.30543
G1 X111.144 Y124.848 E18.37414
G1 X110.241 Y128.076 E18.52047
G1 X110.756 Y127.119 E18.56791
G1 X113.289 Y124.448 E18.7286
G1 X114.569 Y123.618 E18.7952
G1 X118.091 Y122.629 E18.95489
G1 X119.339 Y122.533 E19.00953
G1 X119.836 Y122.588 E19.03136
G1 X123.23 Y123.539 E19.18523
G1 X124.173 Y124.012 E19.23128
G1 X124.279 Y123.426 E19.25728
G1 X125.108 Y120.583 E19.38656
G1 X125.752 Y119.39 E19.44574
G1 X127.357 Y117.701 E19.54745
G1 X126.045 Y116.393 E19.62833
G1 X125.286 Y115.2 E19.69005
G1 X124.61 Y112.891 E19.79508
G1 X123.725 Y112.405 E19.83916
G1 X122.324 Y111.002 E19.92571
G1 X121.918 Y110.948 E19.94359
G1 X119.711 Y110.303 E20.04396
G1 X119.326 Y110.113 E20.06271
G1 X117.016 Y110.758 E20.1674
G1 X116.024 Y110.827 E20.21081
G1 X115.195 Y110.768 E20.24709
G1 X114.055 Y110.436 E20.29893
G1 X113.065 Y111.058 E20.34997
G1 X111.821 Y111.406 E20.40636
G0 F7200 X111.394 Y110.98
G1 F3600 X110.877 Y112.841 E20.49067
G1 X110.239 Y114.006 E20.54866
G1 X108.265 Y115.98 E20.67052
G1 X107.221 Y116.635 E20.72433
G1 X106.785 Y116.779 E20.74437
G1 X108.993 Y119.111 E20.88456
G1 X109.625 Y120.145 E20.93746
G1 X110.564 Y123.358 E21.08359
G1 X110.616 Y124.785 E21.14593
G1 X109.68 Y128.131 E21.2976
G1 X109.034 Y129.298 E21.35583
G1 X106.637 Y131.695 E21.50381
G1 X105.518 Y132.397 E21.56148
G1 X102.24 Y133.314 E21.71007
G1 X101.375 Y133.378 E21.74793
G1 X100.604 Y133.323 E21.78167
G1 X97.516 Y132.422 E21.9221
G1 X96.395 Y131.807 E21.97791
G1 X93.888 Y129.3 E22.13269
G1 X93.203 Y128.223 E22.18841
G1 X92.275 Y125.052 E22.33264
G1 X92.18 Y123.935 E22.38158
G1 X92.323 Y123.123 E22.41757
G1 X93.15 Y120.288 E22.54649
G1 X93.733 Y119.207 E22.6001
G1 X96.107 Y116.702 E22.75076
G1 X97.259 Y115.955 E22.8107
G1 X98.691 Y115.553 E22.87563
G1 X97.18 Y114.042 E22.96891
G1 X96.495 Y112.965 E23.02463
G1 X95.74 Y110.381 E23.14215
G1 X95.649 Y109.359 E23.18694
G1 X95.752 Y108.6 E23.22037
G1 X96.437 Y106.212 E23.32882
G1 X97.026 Y105.116 E23.38314
G1 X98.911 Y103.13 E23.50267
G1 X99.733 Y102.537 E23.54692
G1 X100.177 Y102.313 E23.56863
G1 X102.092 Y101.778 E23.65542
G1 X102.485 Y100.438 E23.71638
G1 X103.068 Y99.358 E23.76996
G1 X104.866 Y97.458 E23.88415
G1 X105.682 Y96.869 E23.92809
G1 X106.177 Y96.629 E23.9521
G1 X108.617 Y95.945 E24.06272
G1 X109.692 Y95.862 E24.10979
G1 X110.252 Y95.922 E24.13438
G1 X111.635 Y96.31 E24.19708
G1 X112.297 Y95.841 E24.2325
G1 X112.831 Y95.583 E24.25839
G1 X115.252 Y94.903 E24.36816
G1 X116.287 Y94.817 E24.4135
G1 X116.847 Y94.882 E24.43811
G1 X119.373 Y95.592 E24.55265
G1 X119.782 Y95.802 E24.57272
G1 X122.152 Y95.133 E24.68023
G1 X123.188 Y95.048 E24.7256
G1 X123.827 Y95.124 E24.75369
G1 X126.299 Y95.817 E24.86577
G1 X126.794 Y96.057 E24.88978
G1 X127.612 Y96.647 E24.93381
G1 X128.815 Y97.919 E25.01024
G1 X129.221 Y97.955 E25.02803
G1 X131.729 Y98.663 E25.14179
G1 X132.111 Y98.844 E25.16025
G1 X132.972 Y99.467 E25.20664
G1 X134.677 Y101.266 E25.31484
G1 X135.309 Y102.3 E25.36774
G1 X135.79 Y103.951 E25.44281
G1 X136.5 Y104.154 E25.47505
G1 X137.003 Y104.384 E25.49919
G1 X137.829 Y104.979 E25.54363
G1 X139.674 Y106.924 E25.66066
G1 X140.306 Y107.958 E25.71356
G1 X141.09 Y110.643 E25.83567
G1 X141.142 Y112.07 E25.89801
G1 X140.359 Y114.87 E26.02493
G1 X139.731 Y116.017 E26.08201
G1 X138.744 Y117.004 E26.14294
G1 X138.963 Y117.171 E26.15497
G1 X141.271 Y119.608 E26.30149
G1 X141.903 Y120.642 E26.35439
G1 X142.828 Y123.808 E26.49838
G1 X142.88 Y125.236 E26.56076
G1 X141.958 Y128.53 E26.71008
G1 X141.326 Y129.685 E26.76755
G1 X138.944 Y132.067 E26.91461
G1 X137.836 Y132.762 E26.97171
G1 X134.607 Y133.666 E27.11808
G1 X133.743 Y133.731 E27.15591
G1 X132.966 Y133.675 E27.18992
G1 X129.918 Y132.786 E27.32852
G1 X128.798 Y132.167 E27.38438
G1 X128.383 Y131.752 E27.41
G1 X128.432 Y133.1 E27.46888
G1 X127.469 Y136.54 E27.62483
G1 X126.837 Y137.695 E27.6823
G1 X124.349 Y140.183 E27.8359
G1 X123.24 Y140.879 E27.89306
G1 X119.867 Y141.823 E28.04596
G1 X118.912 Y141.894 E28.08776
G1 X118.162 Y141.814 E28.12069
G1 X115.037 Y140.902 E28.2628
G1 X113.917 Y140.283 E28.31866
G1 X111.341 Y137.707 E28.47769
G1 X110.656 Y136.63 E28.53341
G1 X109.703 Y133.365 E28.68189
G1 X109.613 Y132.349 E28.72642
G1 X109.7 Y131.666 E28.75647
G1 X110.604 Y128.509 E28.89983
G1 X111.185 Y127.429 E28.95336
G1 X113.625 Y124.857 E29.10813
G1 X114.791 Y124.101 E29.16879
G1 X118.183 Y123.148 E29.3226
G1 X119.33 Y123.06 E29.37282
G1 X119.694 Y123.094 E29.38878
G1 X123.042 Y124.032 E29.54056
G1 X123.97 Y124.498 E29.58589
G1 X124.288 Y124.714 E29.60267
G1 X124.705 Y125.138 E29.62863
G1 X124.64 Y124.385 E29.66162
G1 X124.783 Y123.573 E29.69762
G1 X125.596 Y120.785 E29.82439
G1 X126.181 Y119.702 E29.87813
G1 X128.091 Y117.691 E29.9992
G1 X126.456 Y116.061 E30.09998
G1 X125.769 Y114.981 E30.15586
G1 X125.053 Y112.535 E30.26712
G1 X124.043 Y111.98 E30.31743
G1 X122.564 Y110.5 E30.40877
G1 X122.065 Y110.444 E30.43069
G1 X119.858 Y109.799 E30.53106
G1 X119.352 Y109.534 E30.556
G1 X119.165 Y109.614 E30.56487
G1 X116.926 Y110.238 E30.66634
G1 X115.988 Y110.303 E30.70739
G1 X115.29 Y110.249 E30.73795
G1 X113.95 Y109.859 E30.79887
G1 X113.826 Y109.96 E30.80585
G1 X112.851 Y110.572 E30.8561
G1 X111.394 Y110.98 E30.92216
G0 F7200 X110.967 Y110.554
G1 F3600 X110.387 Y112.644 E31.01684
G1 X109.815 Y113.688 E31.06881
G1 X107.938 Y115.565 E31.18469
G1 X106.942 Y116.19 E31.23602
G1 X105.541 Y116.582 E31.29952
G1 X106.016 Y116.821 E31.32274
G1 X106.269 Y116.998 E31.33622
G1 X108.573 Y119.431 E31.48249
G1 X109.141 Y120.36 E31.53003
G1 X110.041 Y123.441 E31.67014
G1 X110.088 Y124.723 E31.72615
G1 X109.19 Y127.933 E31.87165
G1 X108.611 Y128.979 E31.92385
G1 X106.31 Y131.28 E32.0659
G1 X105.303 Y131.912 E32.1178
G1 X102.15 Y132.794 E32.26072
G1 X101.336 Y132.854 E32.29636
G1 X100.699 Y132.804 E32.32425
G1 X97.718 Y131.934 E32.45981
G1 X96.712 Y131.382 E32.5099
G1 X94.301 Y128.971 E32.65875
G1 X93.686 Y128.004 E32.70878
G1 X92.794 Y124.955 E32.84746
G1 X92.709 Y123.957 E32.89118
G1 X92.827 Y123.27 E32.92161
G1 X93.639 Y120.488 E33.04812
G1 X94.162 Y119.518 E33.09623
G1 X96.443 Y117.111 E33.24099
G1 X97.481 Y116.438 E33.29499
G1 X99.783 Y115.792 E33.39937
G1 X99.481 Y115.601 E33.41497
G1 X97.593 Y113.713 E33.53152
G1 X96.978 Y112.746 E33.58155
G1 X96.258 Y110.283 E33.69357
G1 X96.177 Y109.372 E33.7335
G1 X96.257 Y108.745 E33.76109
G1 X96.927 Y106.408 E33.86722
G1 X97.455 Y105.426 E33.91589
G1 X99.257 Y103.528 E34.03014
G1 X100.04 Y102.963 E34.07229
G1 X100.318 Y102.819 E34.08596
G1 X102.514 Y102.205 E34.1855
G1 X102.974 Y100.637 E34.25683
G1 X103.497 Y99.668 E34.3049
G1 X105.212 Y97.856 E34.41381
G1 X105.989 Y97.295 E34.45565
G1 X106.319 Y97.135 E34.47166
G1 X108.714 Y96.464 E34.58024
G1 X109.685 Y96.389 E34.62275
G1 X110.11 Y96.427 E34.64138
G1 X111.768 Y96.892 E34.71655
G1 X111.91 Y96.759 E34.72504
G1 X112.533 Y96.31 E34.75856
G1 X112.973 Y96.088 E34.78008
G1 X115.344 Y95.422 E34.88759
G1 X116.279 Y95.344 E34.92855
G1 X116.705 Y95.387 E34.94724
G1 X119.231 Y96.097 E35.06178
G1 X119.76 Y96.39 E35.08818
G1 X119.968 Y96.291 E35.09823
G1 X122.245 Y95.652 E35.20147
G1 X123.177 Y95.575 E35.2423
G1 X123.685 Y95.63 E35.2646
G1 X126.157 Y96.323 E35.37668
G1 X126.487 Y96.483 E35.39269
G1 X127.266 Y97.045 E35.43462
G1 X128.577 Y98.431 E35.5179
G1 X129.079 Y98.46 E35.53985
G1 X131.518 Y99.144 E35.65043
G1 X131.803 Y99.269 E35.66402
G1 X132.625 Y99.864 E35.70832
G1 X134.257 Y101.586 E35.81188
G1 X134.825 Y102.515 E35.85942
G1 X135.367 Y104.376 E35.94403
G1 X136.356 Y104.659 E35.98894
G1 X136.736 Y104.839 E36.0073
G1 X137.483 Y105.377 E36.04748
G1 X139.254 Y107.244 E36.15982
G1 X139.822 Y108.173 E36.20735
G1 X140.567 Y110.726 E36.32345
G1 X140.614 Y112.008 E36.37945
G1 X139.869 Y114.67 E36.50012
G1 X139.305 Y115.701 E36.55143
G1 X137.878 Y117.128 E36.63952
G1 X138.329 Y117.355 E36.66156
G1 X138.582 Y117.532 E36.67504
G1 X140.851 Y119.928 E36.8191
G1 X141.419 Y120.857 E36.86663
G1 X142.305 Y123.891 E37.00461
G1 X142.352 Y125.173 E37.06061
G1 X141.468 Y128.331 E37.20377
G1 X140.9 Y129.369 E37.25542
G1 X138.617 Y131.652 E37.39636
G1 X137.621 Y132.277 E37.44769
G1 X134.516 Y133.146 E37.58845
