;FLAVOR:Marlin
;TIME:2050
;Filament used: 3.15772m
;Layer height: 0.2
;MINX:0
;MINY:0
;MINZ:0.2
;MAXX:140.418
;MAXY:137.918
;MAXZ:63.4
;TARGET_MACHINE.NAME:ELEGOO NEPTUNE 4
;Generated with Cura_SteamEngine 5.10.0
;ELEGOO NEPTUNE 4 / 4 PRO
M220 S100 ;Set the feed speed to 100%
M221 S100 ;Set the flow rate to 100%
M104 S140 ;Start heating extruder
M190 S70 ;Wait for the bed to reach print temp
G90
G28 ;home
G1 Z10 F300
G1 X67.5 Y0 F6000
G1 Z0 F300
M109 S220.0 ;Wait for extruder to reach print temp
G92 E0 ;Reset Extruder
G1 X67.5 Y0 Z0.4 F300 ;Move to start position
G1 X167.5 E30 F400 ;Draw the first line
G1 Z0.6 F120.0 ;Move to side a little
G1 X162.5 F3000
G92 E0 ;Reset Extruder
M82 ;absolute extrusion mode
G92 E0
G92 E0
G1 F2700 E-0.5
;LAYER_COUNT:317
;LAYER:0
M107
M204 S500
G0 F7200 X101.184 Y98.903 Z0.2
;TYPE:SKIRT
G1 F2700 E0
G1 F3600 X103.828 Y96.604 E0.15295
G1 X105.924 Y95.218 E0.26265
G1 X108.936 Y93.738 E0.40915
G1 X111.446 Y92.892 E0.52477
G1 X114.83 Y92.237 E0.67524
G1 X117.85 Y92.082 E0.80725
G1 X120.43 Y92.264 E0.92016
G1 X123.648 Y92.922 E1.06354
G1 X126.595 Y93.96 E1.19994
G1 X128.868 Y95.097 E1.31088
G1 X131.511 Y96.862 E1.44962
G1 X133.598 Y98.685 E1.57059
G1 X135.859 Y101.283 E1.72094
G1 X137.514 Y103.824 E1.85332
G1 X138.601 Y106.044 E1.96122
G1 X139.62 Y109.004 E2.09788
G1 X140.263 Y112.33 E2.24576
G1 X140.418 Y115.349 E2.37773
G1 X140.237 Y117.929 E2.49063
G1 X139.578 Y121.149 E2.63411
G1 X138.54 Y124.095 E2.77046
G1 X137.403 Y126.368 E2.88141
G1 X135.638 Y129.011 E3.02015
G1 X133.816 Y131.097 E3.14106
G1 X131.172 Y133.396 E3.29401
G1 X129.076 Y134.782 E3.4037
G1 X126.064 Y136.262 E3.5502
G1 X123.554 Y137.108 E3.66583
G1 X120.17 Y137.763 E3.8163
G1 X117.15 Y137.918 E3.94831
G1 X114.57 Y137.736 E4.06121
G1 X111.352 Y137.078 E4.2046
G1 X108.404 Y136.039 E4.34105
G1 X106.018 Y134.837 E4.45768
G1 X103.593 Y133.218 E4.58496
G1 X101.398 Y131.31 E4.71192
G1 X99.104 Y128.672 E4.86454
G1 X97.718 Y126.576 E4.97423
G1 X96.238 Y123.564 E5.12073
G1 X95.392 Y121.054 E5.23636
G1 X94.737 Y117.67 E5.38683
G1 X94.582 Y114.651 E5.51879
G1 X94.764 Y112.07 E5.63174
G1 X95.422 Y108.852 E5.77513
G1 X96.46 Y105.905 E5.91152
G1 X97.597 Y103.632 E6.02247
G1 X99.362 Y100.989 E6.16121
G1 X101.184 Y98.903 E6.28211
G0 F7200 X101.529 Y99.299
G1 F3600 X104.118 Y97.042 E6.43205
G1 X106.214 Y95.656 E6.54174
G1 X109.104 Y94.236 E6.68231
G1 X111.614 Y93.39 E6.79794
G1 X114.858 Y92.761 E6.94219
G1 X117.813 Y92.606 E7.07136
G1 X120.393 Y92.788 E7.18427
G1 X123.474 Y93.417 E7.32154
G1 X126.36 Y94.43 E7.45506
G1 X128.633 Y95.567 E7.56601
G1 X131.219 Y97.298 E7.70186
G1 X133.202 Y99.03 E7.81679
G1 X135.463 Y101.628 E7.96714
G1 X137.042 Y104.055 E8.09354
G1 X138.129 Y106.275 E8.20144
G1 X139.123 Y109.174 E8.33523
G1 X139.739 Y112.358 E8.4768
G1 X139.894 Y115.312 E8.60593
G1 X139.713 Y117.892 E8.71883
G1 X139.083 Y120.975 E8.8562
G1 X138.07 Y123.86 E8.98968
G1 X136.933 Y126.133 E9.10063
G1 X135.202 Y128.719 E9.23647
G1 X133.471 Y130.701 E9.35135
G1 X130.882 Y132.958 E9.50128
G1 X128.786 Y134.344 E9.61098
G1 X125.896 Y135.764 E9.75154
G1 X123.386 Y136.61 E9.86717
G1 X120.142 Y137.239 E10.01142
G1 X117.187 Y137.394 E10.1406
G1 X114.607 Y137.212 E10.25351
G1 X111.526 Y136.583 E10.39078
G1 X108.64 Y135.57 E10.5243
G1 X106.31 Y134.4 E10.63812
G1 X103.885 Y132.781 E10.7654
G1 X101.743 Y130.914 E10.88944
G1 X99.542 Y128.382 E11.0359
G1 X98.156 Y126.286 E11.14559
G1 X96.736 Y123.396 E11.28616
G1 X95.89 Y120.886 E11.40178
G1 X95.261 Y117.642 E11.54604
G1 X95.106 Y114.688 E11.67517
G1 X95.288 Y112.107 E11.78812
G1 X95.917 Y109.026 E11.92539
G1 X96.93 Y106.14 E12.05891
G1 X98.067 Y103.867 E12.16986
G1 X99.798 Y101.281 E12.3057
G1 X101.529 Y99.299 E12.42058
G0 F7200 X101.875 Y99.694
G1 F3600 X104.408 Y97.48 E12.56744
G1 X106.504 Y96.094 E12.67713
G1 X109.272 Y94.734 E12.81176
G1 X111.782 Y93.888 E12.92739
G1 X114.886 Y93.285 E13.06543
G1 X117.776 Y93.13 E13.19177
G1 X120.356 Y93.312 E13.30467
G1 X123.301 Y93.913 E13.43588
G1 X126.125 Y94.9 E13.56648
G1 X128.398 Y96.037 E13.67742
G1 X130.874 Y97.694 E13.80748
G1 X132.806 Y99.375 E13.91928
G1 X135.023 Y101.915 E14.06645
G1 X136.57 Y104.286 E14.19004
G1 X137.657 Y106.506 E14.29794
G1 X138.626 Y109.344 E14.42886
G1 X139.215 Y112.386 E14.56412
G1 X139.37 Y115.275 E14.69042
G1 X139.189 Y117.855 E14.80332
G1 X138.587 Y120.802 E14.93462
G1 X137.6 Y123.625 E15.06518
G1 X136.463 Y125.898 E15.17612
G1 X134.806 Y128.374 E15.30618
G1 X133.125 Y130.306 E15.41798
G1 X130.592 Y132.52 E15.56484
G1 X128.496 Y133.906 E15.67453
G1 X125.728 Y135.266 E15.80916
G1 X123.218 Y136.112 E15.92479
G1 X120.114 Y136.715 E16.06282
G1 X117.224 Y136.87 E16.18917
G1 X114.644 Y136.688 E16.30207
G1 X111.699 Y136.087 E16.43328
G1 X108.875 Y135.1 E16.56387
G1 X106.602 Y133.963 E16.67482
G1 X104.177 Y132.344 E16.80211
G1 X102.089 Y130.519 E16.92317
G1 X99.98 Y128.092 E17.06353
G1 X98.594 Y125.996 E17.17322
G1 X97.234 Y123.228 E17.30785
G1 X96.388 Y120.718 E17.42348
G1 X95.785 Y117.614 E17.56151
G1 X95.63 Y114.725 E17.68781
G1 X95.812 Y112.144 E17.80076
G1 X96.413 Y109.199 E17.93197
G1 X97.4 Y106.375 E18.06256
G1 X98.537 Y104.102 E18.17351
G1 X100.194 Y101.626 E18.30357
G1 X101.875 Y99.694 E18.41536
G0 F7200 X102.271 Y100.039
G1 F3600 X104.698 Y97.918 E18.55607
G1 X106.794 Y96.532 E18.66576
G1 X109.44 Y95.232 E18.79446
G1 X111.95 Y94.386 E18.91009
G1 X114.915 Y93.809 E19.04195
G1 X117.739 Y93.654 E19.16541
G1 X120.319 Y93.836 E19.27832
G1 X123.128 Y94.409 E19.40347
G1 X125.89 Y95.37 E19.53113
G1 X128.163 Y96.507 E19.64208
G1 X130.529 Y98.09 E19.76635
G1 X132.461 Y99.771 E19.87814
G1 X134.584 Y102.202 E20.01904
G1 X136.099 Y104.518 E20.13985
G1 X137.16 Y106.676 E20.24483
G1 X138.129 Y109.514 E20.37574
G1 X138.691 Y112.415 E20.50473
G1 X138.846 Y115.238 E20.62815
G1 X138.665 Y117.818 E20.74106
G1 X138.091 Y120.629 E20.8663
G1 X137.13 Y123.39 E20.99392
G1 X135.993 Y125.663 E21.10487
G1 X134.41 Y128.029 E21.22914
G1 X132.729 Y129.961 E21.34093
G1 X130.302 Y132.082 E21.48164
G1 X128.206 Y133.468 E21.59133
G1 X125.56 Y134.768 E21.72003
G1 X123.05 Y135.614 E21.83566
G1 X120.085 Y136.191 E21.96752
G1 X117.261 Y136.346 E22.09098
G1 X114.681 Y136.164 E22.20389
G1 X111.872 Y135.591 E22.32904
G1 X109.11 Y134.63 E22.4567
G1 X106.837 Y133.493 E22.56765
G1 X104.523 Y131.949 E22.68909
G1 X102.435 Y130.124 E22.81015
G1 X100.418 Y127.802 E22.94441
G1 X99.032 Y125.706 E23.05411
G1 X97.732 Y123.06 E23.1828
G1 X96.886 Y120.55 E23.29843
G1 X96.309 Y117.585 E23.43029
G1 X96.154 Y114.762 E23.55371
G1 X96.336 Y112.181 E23.66666
G1 X96.909 Y109.372 E23.79181
G1 X97.87 Y106.61 E23.91947
G1 X99.007 Y104.337 E24.03042
G1 X100.59 Y101.971 E24.15469
G1 X102.271 Y100.039 E24.26649
G0 F7200 X102.667 Y100.384
G1 F3600 X104.988 Y98.356 E24.40104
G1 X107.084 Y96.97 E24.51073
G1 X109.608 Y95.73 E24.63349
G1 X112.118 Y94.884 E24.74912
G1 X114.944 Y94.333 E24.87481
G1 X117.702 Y94.178 E24.9954
G1 X120.282 Y94.36 E25.1083
G1 X122.956 Y94.905 E25.22743
G1 X125.655 Y95.84 E25.35213
G1 X127.928 Y96.977 E25.46307
G1 X130.184 Y98.486 E25.58156
G1 X132.116 Y100.167 E25.69335
G1 X134.145 Y102.49 E25.82799
G1 X135.628 Y104.751 E25.94603
G1 X136.663 Y106.846 E26.04804
G1 X137.632 Y109.684 E26.17895
G1 X138.167 Y112.444 E26.30168
G1 X138.322 Y115.201 E26.42222
G1 X138.141 Y117.781 E26.53513
G1 X137.595 Y120.457 E26.65435
G1 X136.66 Y123.155 E26.779
G1 X135.523 Y125.428 E26.88995
G1 X134.014 Y127.684 E27.00843
G1 X132.333 Y129.616 E27.12023
G1 X130.012 Y131.644 E27.25478
G1 X127.916 Y133.03 E27.36447
G1 X125.392 Y134.27 E27.48723
G1 X122.882 Y135.116 E27.60286
G1 X120.056 Y135.667 E27.72855
G1 X117.298 Y135.822 E27.84914
G1 X114.718 Y135.64 E27.96204
G1 X112.044 Y135.095 E28.08117
G1 X109.345 Y134.16 E28.20587
G1 X107.072 Y133.023 E28.31681
G1 X104.869 Y131.554 E28.4324
G1 X102.781 Y129.729 E28.55346
G1 X100.856 Y127.512 E28.68163
G1 X99.47 Y125.416 E28.79133
G1 X98.23 Y122.892 E28.91409
G1 X97.384 Y120.382 E29.02972
G1 X96.833 Y117.556 E29.15541
G1 X96.678 Y114.799 E29.27595
G1 X96.86 Y112.218 E29.3889
G1 X97.405 Y109.544 E29.50803
G1 X98.34 Y106.845 E29.63272
G1 X99.477 Y104.572 E29.74367
G1 X100.986 Y102.316 E29.86215
G1 X102.667 Y100.384 E29.97395
G0 F7200 X103.063 Y100.729
G1 F3600 X105.278 Y98.794 E30.10234
G1 X107.374 Y97.408 E30.21204
G1 X109.776 Y96.228 E30.32886
G1 X112.286 Y95.382 E30.44449
G1 X114.974 Y94.857 E30.56405
G1 X117.665 Y94.702 E30.68172
G1 X120.245 Y94.884 E30.79462
G1 X122.785 Y95.401 E30.90778
G1 X125.42 Y96.31 E31.02946
G1 X127.693 Y97.447 E31.1404
G1 X129.839 Y98.882 E31.2531
G1 X131.771 Y100.563 E31.3649
G1 X133.706 Y102.779 E31.49332
G1 X135.157 Y104.984 E31.60855
G1 X136.192 Y107.079 E31.71056
G1 X137.135 Y109.853 E31.83846
G1 X137.643 Y112.474 E31.95501
G1 X137.798 Y115.164 E32.07263
G1 X137.617 Y117.744 E32.18553
G1 X137.099 Y120.286 E32.29878
G1 X136.19 Y122.92 E32.42042
G1 X135.053 Y125.193 E32.53137
G1 X133.618 Y127.339 E32.64406
G1 X131.937 Y129.271 E32.75586
G1 X129.722 Y131.206 E32.88425
G1 X127.626 Y132.592 E32.99395
G1 X125.224 Y133.772 E33.11077
G1 X122.714 Y134.618 E33.2264
G1 X120.026 Y135.143 E33.34596
G1 X117.335 Y135.298 E33.46363
G1 X114.755 Y135.116 E33.57653
G1 X112.215 Y134.599 E33.68969
G1 X109.58 Y133.69 E33.81137
G1 X107.307 Y132.553 E33.92232
G1 X105.161 Y131.118 E34.03501
G1 X103.177 Y129.384 E34.15004
G1 X101.294 Y127.222 E34.2752
G1 X99.908 Y125.126 E34.38489
G1 X98.728 Y122.724 E34.50172
G1 X97.882 Y120.214 E34.61734
G1 X97.357 Y117.526 E34.7369
G1 X97.202 Y114.836 E34.85453
G1 X97.384 Y112.255 E34.96748
G1 X97.901 Y109.715 E35.08063
G1 X98.81 Y107.08 E35.20231
G1 X99.947 Y104.807 E35.31326
G1 X101.382 Y102.661 E35.42595
G1 X103.063 Y100.729 E35.53775
G0 F7200 X103.459 Y101.074
G1 F3600 X105.568 Y99.232 E35.65999
G1 X107.664 Y97.846 E35.76968
G1 X109.944 Y96.726 E35.88057
G1 X112.454 Y95.88 E35.9962
G1 X115.005 Y95.381 E36.10967
G1 X117.628 Y95.226 E36.22438
G1 X120.208 Y95.408 E36.33728
G1 X122.615 Y95.898 E36.44451
G1 X125.185 Y96.78 E36.56313
G1 X127.458 Y97.917 E36.67407
G1 X129.546 Y99.318 E36.78384
G1 X131.426 Y100.959 E36.89278
G1 X133.268 Y103.068 E37.01501
G1 X134.686 Y105.217 E37.12741
G1 X135.721 Y107.312 E37.22942
G1 X136.62 Y109.954 E37.35124
G1 X137.119 Y112.505 E37.46472
G1 X137.274 Y115.127 E37.57938
G1 X137.093 Y117.707 E37.69228
G1 X136.602 Y120.116 E37.7996
G1 X135.72 Y122.685 E37.91818
G1 X134.583 Y124.958 E38.02912
G1 X133.182 Y127.046 E38.13889
G1 X131.541 Y128.926 E38.24783
G1 X129.432 Y130.768 E38.37006
G1 X127.336 Y132.154 E38.47976
G1 X125.056 Y133.274 E38.59065
G1 X122.546 Y134.12 E38.70628
G1 X119.995 Y134.619 E38.81975
G1 X117.372 Y134.774 E38.93445
G1 X114.792 Y134.592 E39.04736
G1 X112.385 Y134.102 E39.15459
G1 X109.815 Y133.22 E39.2732
G1 X107.542 Y132.083 E39.38415
G1 X105.454 Y130.682 E39.49392
G1 X103.572 Y129.039 E39.60298
G1 X101.732 Y126.932 E39.72509
G1 X100.346 Y124.836 E39.83478
G1 X99.226 Y122.556 E39.94568
G1 X98.38 Y120.046 E40.0613
G1 X97.881 Y117.495 E40.17478
G1 X97.726 Y114.873 E40.28944
G1 X97.908 Y112.292 E40.40239
G1 X98.398 Y109.885 E40.50962
G1 X99.28 Y107.315 E40.62823
G1 X100.417 Y105.042 E40.73918
G1 X101.818 Y102.954 E40.84894
G1 X103.459 Y101.074 E40.95788
G0 F7200 X103.854 Y101.42
G1 F3600 X105.858 Y99.67 E41.07402
G1 X107.954 Y98.284 E41.18372
G1 X110.113 Y97.223 E41.28873
G1 X112.556 Y96.395 E41.40134
G1 X115.037 Y95.905 E41.51173
G1 X117.592 Y95.75 E41.62348
G1 X120.104 Y95.923 E41.73339
G1 X122.445 Y96.395 E41.83764
G1 X124.951 Y97.25 E41.95323
G1 X127.165 Y98.353 E42.06121
G1 X129.253 Y99.754 E42.17098
G1 X131.08 Y101.354 E42.277
G1 X132.83 Y103.358 E42.39314
G1 X134.215 Y105.45 E42.50266
G1 X135.25 Y107.545 E42.60467
G1 X136.105 Y110.056 E42.72047
G1 X136.595 Y112.537 E42.83086
G1 X136.75 Y115.091 E42.94256
G1 X136.578 Y117.603 E43.05248
G1 X136.105 Y119.946 E43.15682
G1 X135.25 Y122.451 E43.27237
G1 X134.147 Y124.665 E43.38035
G1 X132.746 Y126.753 E43.49011
G1 X131.146 Y128.58 E43.59613
G1 X129.142 Y130.33 E43.71227
G1 X127.046 Y131.716 E43.82197
G1 X124.887 Y132.777 E43.92698
G1 X122.444 Y133.605 E44.03959
G1 X119.963 Y134.095 E44.14999
G1 X117.408 Y134.25 E44.26173
G1 X114.896 Y134.077 E44.37164
G1 X112.555 Y133.605 E44.47589
G1 X110.049 Y132.75 E44.59148
G1 X107.835 Y131.647 E44.69946
G1 X105.747 Y130.246 E44.80923
G1 X103.918 Y128.644 E44.91537
G1 X102.17 Y126.642 E45.03139
G1 X100.784 Y124.546 E45.14108
G1 X99.723 Y122.387 E45.2461
G1 X98.895 Y119.944 E45.3587
G1 X98.405 Y117.463 E45.4691
G1 X98.25 Y114.909 E45.5808
G1 X98.423 Y112.396 E45.69076
G1 X98.895 Y110.055 E45.79501
G1 X99.75 Y107.549 E45.9106
G1 X100.853 Y105.335 E46.01858
G1 X102.254 Y103.247 E46.12835
G1 X103.854 Y101.42 E46.23436
G1 F2700 E45.73436
G0 F7200 X104.644 Y102.112
G1 F2700 E46.23436
G1 F3600 X106.439 Y100.544 E46.33841
G1 X108.418 Y99.226 E46.4422
G1 X110.514 Y98.191 E46.54425
G1 X112.763 Y97.425 E46.64797
G1 X115.104 Y96.953 E46.75222
G1 X117.523 Y96.798 E46.85803
G1 X119.896 Y96.953 E46.96184
G1 X122.237 Y97.425 E47.06609
G1 X124.486 Y98.191 E47.16981
G1 X126.582 Y99.226 E47.27186
G1 X128.561 Y100.544 E47.37565
G1 X130.388 Y102.144 E47.48167
G1 X131.956 Y103.939 E47.58571
G1 X133.273 Y105.916 E47.68941
G1 X134.308 Y108.011 E47.79142
G1 X135.075 Y110.263 E47.89528
G1 X135.547 Y112.604 E47.99953
G1 X135.702 Y115.022 E48.1053
G1 X135.548 Y117.395 E48.20911
G1 X135.075 Y119.738 E48.31345
G1 X134.309 Y121.986 E48.41713
G1 X133.274 Y124.082 E48.51917
G1 X131.956 Y126.061 E48.62297
G1 X130.356 Y127.888 E48.72898
G1 X128.561 Y129.456 E48.83303
G1 X126.582 Y130.774 E48.93683
G1 X124.486 Y131.809 E49.03887
G1 X122.237 Y132.575 E49.14259
G1 X119.896 Y133.047 E49.24684
G1 X117.477 Y133.202 E49.35265
G1 X115.104 Y133.047 E49.45647
G1 X112.763 Y132.575 E49.56072
G1 X110.514 Y131.809 E49.66443
G1 X108.418 Y130.774 E49.76648
G1 X106.439 Y129.456 E49.87028
G1 X104.61 Y127.854 E49.97642
G1 X103.044 Y126.061 E50.08034
G1 X101.726 Y124.082 E50.18413
G1 X100.691 Y121.986 E50.28618
G1 X99.925 Y119.737 E50.3899
G1 X99.453 Y117.396 E50.49415
G1 X99.298 Y114.978 E50.59992
G1 X99.453 Y112.604 E50.70377
G1 X99.925 Y110.263 E50.80802
G1 X100.691 Y108.014 E50.91174
G1 X101.726 Y105.918 E51.01379
G1 X103.044 Y103.939 E51.11758
G1 X104.644 Y102.112 E51.2236
G0 F7200 X104.249 Y101.766
G1 F3600 X106.148 Y100.107 E51.33368
G1 X108.186 Y98.755 E51.44044
G1 X110.345 Y97.694 E51.54546
G1 X112.659 Y96.91 E51.65211
G1 X115.07 Y96.429 E51.75943
G1 X117.557 Y96.274 E51.86821
G1 X120 Y96.438 E51.9751
G1 X122.341 Y96.91 E52.07935
G1 X124.718 Y97.72 E52.18897
G1 X126.873 Y98.789 E52.29399
G1 X128.907 Y100.149 E52.4008
G1 X130.734 Y101.749 E52.50682
G1 X132.393 Y103.648 E52.61689
G1 X133.744 Y105.683 E52.72352
G1 X134.779 Y107.778 E52.82553
G1 X135.59 Y110.159 E52.93533
G1 X136.071 Y112.57 E53.04266
G1 X136.226 Y115.056 E53.15139
G1 X136.063 Y117.499 E53.25828
G1 X135.59 Y119.842 E53.36262
G1 X134.78 Y122.218 E53.4722
G1 X133.711 Y124.373 E53.57722
G1 X132.351 Y126.407 E53.68403
G1 X130.751 Y128.234 E53.79004
G1 X128.852 Y129.893 E53.90012
G1 X126.814 Y131.245 E54.00689
G1 X124.655 Y132.306 E54.1119
G1 X122.341 Y133.09 E54.21856
G1 X119.93 Y133.571 E54.32588
G1 X117.443 Y133.726 E54.43466
G1 X115 Y133.562 E54.54154
G1 X112.659 Y133.09 E54.6458
G1 X110.282 Y132.28 E54.75542
G1 X108.127 Y131.211 E54.86043
G1 X106.093 Y129.851 E54.96724
G1 X104.264 Y128.249 E55.07338
G1 X102.607 Y126.352 E55.18334
G1 X101.255 Y124.314 E55.2901
G1 X100.194 Y122.155 E55.39512
G1 X99.41 Y119.841 E55.50177
G1 X98.929 Y117.43 E55.6091
G1 X98.774 Y114.944 E55.71783
G1 X98.938 Y112.5 E55.82476
G1 X99.41 Y110.159 E55.92901
G1 X100.22 Y107.782 E56.03864
G1 X101.289 Y105.627 E56.14365
G1 X102.649 Y103.593 E56.25046
G1 X104.249 Y101.766 E56.35648
G1 F2700 E55.85648
G0 F7200 X105.069 Y102.569
G1 F2700 E56.35648
G1 F3600 X106.8 Y101.055 E56.45687
G1 X108.71 Y99.778 E56.55716
G1 X110.773 Y98.761 E56.65757
G1 X112.948 Y98.022 E56.75785
G1 X115.213 Y97.569 E56.85868
G1 X117.5 Y97.422 E56.95873
G1 X119.787 Y97.569 E57.05877
G1 X122.052 Y98.022 E57.1596
G1 X124.227 Y98.761 E57.25988
G1 X126.29 Y99.778 E57.36029
G1 X128.2 Y101.055 E57.46059
