;FLAVOR:Marlin
;TIME:3328
;Filament used: 7.05235m
;Layer height: 0.2
;MINX:76.615
;MINY:86.359
;MINZ:0.2
;MAXX:156.733
;MAXY:152.789
;MAXZ:77
;TARGET_MACHINE.NAME:ELEGOO NEPTUNE 4
;Generated with Cura_SteamEngine 5.10.0
;ELEGOO NEPTUNE 4 / 4 PRO
M220 S100 ;Set the feed speed to 100%
M221 S100 ;Set the flow rate to 100%
M104 S140 ;Start heating extruder
M190 S70 ;Wait for the bed to reach print temp
G90
G28 ;home
G1 Z10 F300
G1 X67.5 Y0 F6000
G1 Z0 F300
M109 S220.0 ;Wait for extruder to reach print temp
G92 E0 ;Reset Extruder
G1 X67.5 Y0 Z0.4 F300 ;Move to start position
G1 X167.5 E30 F400 ;Draw the first line
G1 Z0.6 F120.0 ;Move to side a little
G1 X162.5 F3000
G92 E0 ;Reset Extruder
M82 ;absolute extrusion mode
G92 E0
G92 E0
G1 F2700 E-0.5
;LAYER_COUNT:385
;LAYER:0
M107
M204 S500
G0 F7200 X84.264 Y97.01 Z0.2
;TYPE:SKIRT
G1 F2700 E0
G1 F3600 X85.654 Y96.109 E0.07231
G1 X92.055 Y94.314 E0.36252
G1 X93.414 Y94.21 E0.42202
G1 X94.038 Y94.286 E0.44946
G1 X100.231 Y96.02 E0.73021
G1 X101.208 Y96.511 E0.77794
G1 X101.724 Y94.716 E0.85947
G1 X102.417 Y93.474 E0.92156
G1 X104.372 Y91.414 E1.04554
G1 X105.19 Y90.825 E1.08954
G1 X105.959 Y90.413 E1.12762
G1 X108.647 Y89.658 E1.2495
G1 X109.905 Y89.56 E1.30459
G1 X110.637 Y89.639 E1.33673
G1 X112.992 Y90.303 E1.44354
G1 X113.462 Y89.971 E1.46866
G1 X114.171 Y89.596 E1.50367
G1 X116.857 Y88.842 E1.62546
G1 X118.115 Y88.744 E1.68054
G1 X118.856 Y88.825 E1.71308
G1 X121.598 Y89.613 E1.83763
G1 X122.194 Y89.885 E1.86623
G1 X123.184 Y90.598 E1.91949
G1 X125.034 Y92.548 E2.03683
G1 X125.805 Y93.813 E2.1015
G1 X126.155 Y95.014 E2.15611
G1 X126.664 Y94.057 E2.20342
G1 X131.304 Y89.163 E2.49782
G1 X132.694 Y88.262 E2.57014
G1 X139.108 Y86.463 E2.86094
G1 X140.474 Y86.359 E2.92074
G1 X141.091 Y86.435 E2.94788
G1 X147.389 Y88.198 E3.23338
G1 X148.858 Y89.029 E3.30706
G1 X153.494 Y93.922 E3.60131
G1 X154.254 Y95.166 E3.66494
G1 X156.073 Y101.392 E3.94809
G1 X156.135 Y103.113 E4.02327
G1 X154.322 Y109.59 E4.31689
G1 X153.541 Y111 E4.38725
G1 X148.899 Y115.642 E4.67383
G1 X147.543 Y116.499 E4.74385
G1 X143.009 Y117.765 E4.94935
G1 X142.445 Y119.78 E5.0407
G1 X141.679 Y121.187 E5.11063
G1 X139.471 Y123.395 E5.24694
G1 X138.678 Y123.826 E5.28634
G1 X142.197 Y127.545 E5.50985
G1 X142.959 Y128.782 E5.57327
G1 X144.817 Y135.055 E5.85887
G1 X144.919 Y136.151 E5.90693
G1 X144.859 Y137.033 E5.94552
G1 X143.07 Y143.554 E6.2407
G1 X142.226 Y144.91 E6.31043
G1 X137.736 Y149.417 E6.58815
G1 X136.363 Y150.273 E6.65878
G1 X129.94 Y152.039 E6.94957
G1 X128.725 Y152.13 E7.00276
G1 X127.902 Y152.013 E7.03905
G1 X121.68 Y150.179 E7.32222
G1 X120.381 Y149.349 E7.38951
G1 X115.529 Y144.487 E7.68936
G1 X114.702 Y143.169 E7.75729
G1 X113.918 Y140.49 E7.87914
G1 X112.443 Y140.06 E7.94621
G1 X111.104 Y139.32 E8.013
G1 X108.906 Y137.122 E8.14869
G1 X108.462 Y136.395 E8.18588
G1 X106.307 Y136.997 E8.28355
G1 X105.188 Y137.069 E8.3325
G1 X104.304 Y137.006 E8.37119
G1 X101.697 Y136.245 E8.48975
G1 X100.347 Y135.499 E8.55708
G1 X98.153 Y133.305 E8.69253
G1 X97.379 Y132.037 E8.75738
G1 X96.597 Y129.365 E8.87892
G1 X96.492 Y128.094 E8.93459
G1 X96.66 Y127.017 E8.98217
G1 X97.18 Y125.223 E9.06371
G1 X94.107 Y126.083 E9.20301
G1 X92.961 Y126.168 E9.25318
G1 X92.019 Y126.068 E9.29453
G1 X86.048 Y124.326 E9.56606
G1 X84.698 Y123.58 E9.63339
G1 X79.84 Y118.722 E9.9333
G1 X79.006 Y117.409 E10.0012
G1 X77.217 Y111.269 E10.28038
G1 X77.101 Y109.911 E10.33988
G1 X77.281 Y108.91 E10.38428
G1 X78.948 Y103.177 E10.64491
G1 X79.651 Y101.874 E10.70955
G1 X84.264 Y97.01 E11.00218
G0 F7200 X84.6 Y97.419
G1 F3600 X85.876 Y96.592 E11.06856
G1 X92.147 Y94.833 E11.35288
G1 X93.399 Y94.737 E11.4077
G1 X93.896 Y94.792 E11.42953
G1 X100.045 Y96.514 E11.70828
G1 X101.117 Y97.052 E11.76064
G1 X101.614 Y97.002 E11.78245
G1 X102.212 Y94.92 E11.87701
G1 X102.845 Y93.785 E11.93374
G1 X104.718 Y91.812 E12.0525
G1 X105.497 Y91.251 E12.09441
G1 X106.157 Y90.902 E12.127
G1 X108.739 Y90.177 E12.24407
G1 X109.894 Y90.087 E12.29464
G1 X110.54 Y90.157 E12.32301
G1 X113.094 Y90.877 E12.43885
G1 X113.707 Y90.435 E12.47184
G1 X114.367 Y90.086 E12.50443
G1 X116.949 Y89.361 E12.6215
G1 X118.104 Y89.271 E12.67208
G1 X118.754 Y89.342 E12.70062
G1 X121.38 Y90.091 E12.81983
G1 X121.93 Y90.342 E12.84622
G1 X122.838 Y90.996 E12.89507
G1 X124.616 Y92.87 E13.00784
G1 X125.32 Y94.025 E13.06688
G1 X126.068 Y96.591 E13.18356
G1 X126.093 Y96.834 E13.19423
G1 X126.472 Y95.536 E13.25326
G1 X127.094 Y94.367 E13.31106
G1 X131.64 Y89.572 E13.5995
G1 X132.916 Y88.745 E13.66588
G1 X139.2 Y86.982 E13.95079
G1 X140.458 Y86.886 E14.00587
G1 X140.949 Y86.941 E14.02744
G1 X147.187 Y88.687 E14.31022
G1 X148.532 Y89.448 E14.37768
G1 X153.074 Y94.242 E14.66597
G1 X153.77 Y95.381 E14.72424
G1 X155.55 Y101.475 E15.00138
G1 X155.607 Y103.05 E15.07018
G1 X153.832 Y109.392 E15.35767
G1 X153.118 Y110.681 E15.422
G1 X148.57 Y115.229 E15.70277
G1 X147.329 Y116.013 E15.76685
G1 X142.583 Y117.339 E15.98197
G1 X141.955 Y119.583 E16.08369
G1 X141.254 Y120.87 E16.14767
G1 X139.154 Y122.97 E16.27731
G1 X137.827 Y123.691 E16.34324
G1 X141.779 Y127.867 E16.59423
G1 X142.476 Y128.999 E16.65226
G1 X144.299 Y135.152 E16.93241
G1 X144.392 Y136.157 E16.97647
G1 X144.338 Y136.947 E17.01103
G1 X142.585 Y143.339 E17.30037
G1 X141.811 Y144.582 E17.36429
G1 X137.404 Y149.005 E17.63686
G1 X136.15 Y149.787 E17.70137
G1 X129.854 Y151.518 E17.98642
G1 X128.741 Y151.602 E18.03514
G1 X127.976 Y151.493 E18.06887
G1 X121.902 Y149.697 E18.34538
G1 X120.713 Y148.938 E18.40695
G1 X115.942 Y144.157 E18.70181
G1 X115.185 Y142.951 E18.76396
G1 X114.341 Y140.067 E18.89514
G1 X112.648 Y139.573 E18.97213
G1 X111.421 Y138.895 E19.03333
G1 X109.323 Y136.797 E19.16285
G1 X108.703 Y135.782 E19.21477
G1 X106.218 Y136.476 E19.3274
G1 X105.225 Y136.545 E19.37085
G1 X104.396 Y136.486 E19.40714
G1 X101.902 Y135.758 E19.52055
G1 X100.664 Y135.074 E19.5823
G1 X98.57 Y132.98 E19.71157
G1 X97.863 Y131.822 E19.7708
G1 X97.116 Y129.268 E19.88696
G1 X97.02 Y128.114 E19.93751
G1 X97.164 Y127.163 E19.9795
G1 X97.821 Y124.895 E20.08258
G1 X98.066 Y124.429 E20.10556
G1 X94.015 Y125.563 E20.2892
G1 X92.967 Y125.641 E20.33508
G1 X92.121 Y125.551 E20.37222
G1 X86.253 Y123.839 E20.63906
G1 X85.015 Y123.155 E20.7008
G1 X80.252 Y118.392 E20.99485
G1 X79.49 Y117.192 E21.0569
G1 X77.735 Y111.172 E21.33064
G1 X77.63 Y109.937 E21.38475
G1 X77.798 Y109.003 E21.42617
G1 X79.437 Y103.376 E21.68202
G1 X80.08 Y102.185 E21.74111
G1 X84.6 Y97.419 E22.02785
G1 F2700 E21.52785
G0 F7200 X113.382 Y105.097
G1 F2700 E22.02785
G1 F3600 X115.041 Y104.632 E22.10306
G1 X114.744 Y104.545 E22.11657
G1 X114.409 Y104.375 E22.13297
G1 X113.986 Y104.768 E22.15818
G1 X113.382 Y105.097 E22.1882
G1 F2700 E21.6882
G0 F7200 X122.321 Y105.079
G1 F2700 E22.1882
G1 F3600 X123.181 Y105.319 E22.22718
G1 X124.653 Y106.151 E22.30099
G1 X125.206 Y106.734 E22.33607
G1 X124.238 Y103.424 E22.48661
G1 X122.896 Y104.766 E22.56946
G1 X122.321 Y105.079 E22.59804
G0 F7200 X122.579 Y104.341
G1 F3600 X121.295 Y105.039 E22.66184
G1 X120.763 Y105.188 E22.68596
G1 X122.981 Y105.809 E22.78651
G1 X124.326 Y106.569 E22.85395
G1 X126.319 Y108.673 E22.98046
G1 X124.763 Y103.347 E23.22268
G1 X124.67 Y102.25 E23.27074
G1 X122.579 Y104.341 E23.39983
G0 F7200 X122.262 Y103.916
G1 F3600 X121.099 Y104.548 E23.45761
G1 X118.814 Y105.188 E23.5612
G1 X122.78 Y106.298 E23.74098
G1 X123.999 Y106.987 E23.80211
G1 X128.362 Y111.593 E24.07907
G1 X128.693 Y111.245 E24.10003
G1 X127.697 Y110.249 E24.16152
G1 X127.012 Y109.172 E24.21724
G1 X125.282 Y103.25 E24.48656
G1 X125.187 Y102.136 E24.53537
G1 X125.33 Y101.324 E24.57136
G1 X126.96 Y95.738 E24.82538
G1 X127.526 Y94.674 E24.87799
G1 X131.977 Y89.979 E25.16041
G1 X133.136 Y89.228 E25.2207
G1 X139.292 Y87.501 E25.49981
G1 X140.498 Y87.409 E25.55261
G1 X140.807 Y87.447 E25.5662
G1 X146.987 Y89.177 E25.84635
G1 X148.205 Y89.866 E25.90744
G1 X152.654 Y94.562 E26.18983
G1 X153.286 Y95.596 E26.24273
G1 X155.027 Y101.558 E26.51387
G1 X155.079 Y102.987 E26.57629
G1 X153.342 Y109.194 E26.85766
G1 X152.695 Y110.362 E26.91595
G1 X148.241 Y114.816 E27.19092
G1 X147.115 Y115.527 E27.24905
G1 X142.157 Y116.913 E27.47379
G1 X141.465 Y119.386 E27.58589
G1 X140.829 Y120.553 E27.64391
G1 X138.837 Y122.545 E27.76689
G1 X137.674 Y123.177 E27.82467
G1 X136.838 Y123.411 E27.86257
G1 X141.361 Y128.188 E28.14975
G1 X141.993 Y129.216 E28.20243
G1 X143.78 Y135.248 E28.47706
G1 X143.865 Y136.164 E28.51722
G1 X143.817 Y136.861 E28.54772
G1 X142.099 Y143.126 E28.8313
G1 X141.398 Y144.252 E28.88921
G1 X137.072 Y148.593 E29.15674
G1 X135.937 Y149.301 E29.21514
G1 X129.767 Y150.998 E29.49448
G1 X128.758 Y151.074 E29.53865
G1 X128.05 Y150.973 E29.56987
G1 X122.124 Y149.215 E29.83971
G1 X121.045 Y148.527 E29.89557
G1 X116.355 Y143.827 E30.18542
G1 X115.668 Y142.733 E30.24182
G1 X114.764 Y139.644 E30.38232
G1 X112.853 Y139.086 E30.46923
G1 X111.738 Y138.47 E30.52483
G1 X109.74 Y136.472 E30.64818
G1 X109.137 Y135.484 E30.69871
G1 X108.985 Y135.031 E30.71957
G1 X108.457 Y135.305 E30.74554
G1 X106.128 Y135.956 E30.85111
G1 X105.189 Y136.021 E30.89219
G1 X104.491 Y135.967 E30.92276
G1 X102.103 Y135.27 E31.03135
G1 X100.983 Y134.651 E31.08721
G1 X98.987 Y132.655 E31.21044
G1 X98.347 Y131.607 E31.26404
G1 X97.634 Y129.171 E31.37485
G1 X97.548 Y128.131 E31.4204
G1 X97.668 Y127.309 E31.45667
G1 X98.325 Y125.041 E31.55974
G1 X98.863 Y124.081 E31.60778
G1 X99.09 Y123.819 E31.62292
G1 X98.703 Y123.705 E31.64053
G1 X93.923 Y125.043 E31.85721
G1 X92.973 Y125.114 E31.8988
G1 X92.223 Y125.034 E31.93173
G1 X86.454 Y123.351 E32.19406
G1 X85.334 Y122.732 E32.24993
G1 X80.664 Y118.062 E32.53823
G1 X79.974 Y116.975 E32.59444
G1 X78.254 Y111.075 E32.86272
G1 X78.159 Y109.962 E32.91148
G1 X78.302 Y109.15 E32.94747
G1 X79.926 Y103.576 E33.20092
G1 X80.509 Y102.496 E33.2545
G1 X84.937 Y97.826 E33.53543
G1 X86.096 Y97.075 E33.59572
G1 X92.239 Y95.352 E33.87423
G1 X93.39 Y95.264 E33.92463
G1 X93.754 Y95.298 E33.94059
G1 X99.857 Y97.007 E34.21725
G1 X100.781 Y97.471 E34.26239
G1 X100.984 Y97.623 E34.27346
G1 X101.247 Y97.559 E34.28528
G1 X102.019 Y97.495 E34.31909
G1 X102.701 Y95.12 E34.42696
G1 X103.271 Y94.099 E34.47801
G1 X105.064 Y92.21 E34.5917
G1 X105.804 Y91.677 E34.63151
G1 X106.355 Y91.391 E34.65861
G1 X108.831 Y90.696 E34.77088
G1 X109.883 Y90.614 E34.81694
G1 X110.443 Y90.675 E34.84153
G1 X113.064 Y91.413 E34.9604
G1 X113.206 Y91.476 E34.96718
G1 X113.352 Y91.338 E34.97595
G1 X114.014 Y90.861 E35.01157
G1 X114.565 Y90.575 E35.03867
G1 X117.041 Y89.88 E35.15094
G1 X118.093 Y89.798 E35.197
G1 X118.654 Y89.859 E35.22163
G1 X121.162 Y90.569 E35.33542
G1 X121.666 Y90.799 E35.3596
G1 X122.492 Y91.394 E35.40404
G1 X124.198 Y93.192 E35.51224
G1 X124.835 Y94.237 E35.56567
G1 X125.564 Y96.738 E35.67939
G1 X125.616 Y98.158 E35.74142
G1 X124.888 Y100.759 E35.85933
G1 X124.254 Y101.924 E35.91723
G1 X122.262 Y103.916 E36.0402
G0 F7200 X121.945 Y103.491
G1 F3600 X120.902 Y104.058 E36.09203
G1 X118.622 Y104.696 E36.19538
G1 X117.817 Y104.757 E36.23063
G1 X117.175 Y104.707 E36.25874
G1 X114.891 Y104.041 E36.36259
G1 X114.317 Y103.725 E36.3912
G1 X113.735 Y104.307 E36.42713
G1 X112.692 Y104.874 E36.47895
G1 X110.412 Y105.512 E36.58231
G1 X109.607 Y105.573 E36.61755
G1 X109.253 Y105.555 E36.63302
G1 X109.239 Y105.857 E36.64622
G1 X108.926 Y106.975 E36.6969
G1 X109.23 Y106.806 E36.71208
G1 X115.231 Y105.124 E36.98415
G1 X116.504 Y105.087 E37.03974
G1 X122.579 Y106.787 E37.31513
G1 X123.672 Y107.405 E37.36994
G1 X128.027 Y112.002 E37.64637
G1 X128.331 Y112.499 E37.6718
G1 X128.53 Y112.178 E37.68829
G1 X129.426 Y111.236 E37.74504
G1 X128.11 Y109.92 E37.82629
G1 X127.495 Y108.953 E37.87632
G1 X125.801 Y103.153 E38.14009
G1 X125.716 Y102.158 E38.18368
G1 X125.834 Y101.471 E38.21411
G1 X127.448 Y95.94 E38.46563
G1 X127.958 Y94.981 E38.51305
G1 X132.314 Y90.386 E38.78944
G1 X133.356 Y89.711 E38.84364
G1 X139.384 Y88.02 E39.11695
G1 X140.483 Y87.936 E39.16506
G1 X140.665 Y87.953 E39.17304
G1 X146.785 Y89.666 E39.45047
G1 X147.879 Y90.285 E39.50534
G1 X152.234 Y94.882 E39.78177
G1 X152.802 Y95.811 E39.82931
G1 X154.504 Y101.641 E40.09443
G1 X154.551 Y102.924 E40.15048
G1 X152.852 Y108.996 E40.42573
G1 X152.272 Y110.043 E40.47798
G1 X147.912 Y114.403 E40.74715
G1 X146.901 Y115.041 E40.79933
G1 X141.638 Y116.513 E41.0379
G1 X141.62 Y116.882 E41.05403
G1 X140.974 Y119.19 E41.15865
G1 X140.404 Y120.236 E41.21066
G1 X138.52 Y122.12 E41.32697
G1 X137.477 Y122.687 E41.37879
G1 X135.458 Y123.252 E41.47031
G1 X136.535 Y123.855 E41.5242
G1 X140.943 Y128.51 E41.80406
G1 X141.51 Y129.432 E41.85131
G1 X143.261 Y135.344 E42.12047
G1 X143.338 Y136.171 E42.15673
G1 X143.296 Y136.775 E42.18316
G1 X141.613 Y142.913 E42.461
G1 X140.985 Y143.922 E42.51288
G1 X136.74 Y148.181 E42.77538
G1 X135.724 Y148.815 E42.82766
G1 X129.681 Y150.478 E43.10127
G1 X128.771 Y150.546 E43.1411
G1 X128.199 Y150.47 E43.16629
G1 X122.346 Y148.734 E43.4328
G1 X121.377 Y148.116 E43.48297
G1 X116.768 Y143.497 E43.76782
G1 X116.151 Y142.515 E43.81845
G1 X115.187 Y139.221 E43.96828
G1 X113.054 Y138.598 E44.06528
G1 X112.057 Y138.047 E44.11501
G1 X110.155 Y136.145 E44.23243
G1 X109.585 Y135.211 E44.2802
G1 X109.306 Y134.257 E44.32359
G1 X108.316 Y134.799 E44.37286
G1 X106.035 Y135.437 E44.47625
G1 X105.23 Y135.498 E44.5115
G1 X104.588 Y135.448 E44.53961
G1 X102.308 Y134.783 E44.64328
G1 X101.3 Y134.226 E44.69356
G1 X99.402 Y132.328 E44.81073
G1 X98.832 Y131.394 E44.8585
G1 X98.153 Y129.074 E44.96402
G1 X98.076 Y128.148 E45.00459
G1 X98.172 Y127.455 E45.03513
G1 X98.812 Y125.247 E45.13548
G1 X99.321 Y124.338 E45.18096
G1 X100.062 Y123.557 E45.22796
G1 X98.707 Y123.159 E45.28961
G1 X93.833 Y124.523 E45.51055
G1 X92.979 Y124.587 E45.54794
G1 X92.325 Y124.517 E45.57665
G1 X86.659 Y122.864 E45.83431
G1 X85.651 Y122.307 E45.88458
G1 X81.076 Y117.732 E46.16702
G1 X80.458 Y116.758 E46.21738
G1 X78.773 Y110.978 E46.4802
G1 X78.688 Y109.984 E46.52375
G1 X78.806 Y109.297 E46.55418
G1 X80.415 Y103.776 E46.80522
G1 X80.938 Y102.807 E46.85329
G1 X85.274 Y98.233 E47.12842
G1 X86.316 Y97.558 E47.18262
G1 X92.331 Y95.871 E47.45533
G1 X93.43 Y95.787 E47.50344
G1 X93.612 Y95.804 E47.51142
G1 X99.669 Y97.5 E47.78601
G1 X100.545 Y97.94 E47.8288
G1 X100.857 Y98.204 E47.84664
G1 X101.29 Y98.082 E47.86628
G1 X102.182 Y98.008 E47.90535
G1 X102.467 Y98.02 E47.9178
G1 X102.534 Y97.593 E47.93667
G1 X103.189 Y95.323 E48.03981
G1 X103.697 Y94.413 E48.08531
G1 X105.41 Y92.608 E48.19394
G1 X106.111 Y92.103 E48.23165
G1 X106.551 Y91.881 E48.25317
G1 X108.923 Y91.215 E48.36072
G1 X109.876 Y91.141 E48.40244
G1 X110.301 Y91.18 E48.42108
G1 X112.922 Y91.918 E48.53994
G1 X113.288 Y92.142 E48.55867
G1 X113.659 Y91.764 E48.58179
G1 X114.321 Y91.287 E48.61741
G1 X114.761 Y91.065 E48.63893
G1 X117.133 Y90.399 E48.74648
G1 X118.086 Y90.325 E48.78821
G1 X118.511 Y90.364 E48.80684
G1 X121.019 Y91.074 E48.92062
G1 X121.399 Y91.254 E48.93898
G1 X122.146 Y91.792 E48.97917
G1 X123.78 Y93.514 E49.0828
G1 X124.35 Y94.449 E49.1306
G1 X125.041 Y96.821 E49.23845
G1 X125.088 Y98.096 E49.29415
G1 X124.398 Y100.562 E49.40593
G1 X123.829 Y101.607 E49.45787
G1 X121.945 Y103.491 E49.57418
G0 F7200 X121.628 Y103.066
G1 F3600 X120.705 Y103.568 E49.62005
G1 X118.532 Y104.176 E49.71855
G1 X117.777 Y104.233 E49.75161
G1 X117.27 Y104.188 E49.77383
G1 X115.096 Y103.554 E49.87268
G1 X114.226 Y103.074 E49.91606
G1 X113.418 Y103.882 E49.96594
G1 X112.495 Y104.384 E50.01181
G1 X110.322 Y104.992 E50.11031
G1 X109.567 Y105.049 E50.14336
G1 X109.166 Y105.023 E50.16091
G1 X108.702 Y104.9 E50.18186
G1 X108.733 Y105.715 E50.21746
G1 X108.08 Y108.048 E50.32322
G1 X107.762 Y108.633 E50.35229
G1 X108.444 Y107.913 E50.39558
G1 X109.372 Y107.312 E50.44385
G1 X115.312 Y105.647 E50.71315
G1 X116.439 Y105.614 E50.76236
G1 X122.378 Y107.276 E51.03159
G1 X123.345 Y107.823 E51.08008
G1 X127.607 Y112.322 E51.35062
G1 X128.111 Y113.146 E51.39278
G1 X128.314 Y113.842 E51.42443
G1 X128.49 Y113.287 E51.44985
G1 X128.91 Y112.54 E51.48726
G1 X130.159 Y111.227 E51.56637
G1 X128.523 Y109.591 E51.66737
G1 X127.978 Y108.734 E51.7117
G1 X126.32 Y103.056 E51.96992
