;FLAVOR:Marlin
;TIME:1728
;Filament used: 5.21078m
;Layer height: 0.2
;MINX:92.582
;MINY:90.082
;MINZ:0.2
;MAXX:142.418
;MAXY:139.918
;MAXZ:39.2
;TARGET_MACHINE.NAME:ELEGOO NEPTUNE 4
;Generated with Cura_SteamEngine 5.10.0
;ELEGOO NEPTUNE 4 / 4 PRO
M220 S100 ;Set the feed speed to 100%
M221 S100 ;Set the flow rate to 100%
M104 S140 ;Start heating extruder
M190 S70 ;Wait for the bed to reach print temp
G90
G28 ;home
G1 Z10 F300
G1 X67.5 Y0 F6000
G1 Z0 F300
M109 S220.0 ;Wait for extruder to reach print temp
G92 E0 ;Reset Extruder
G1 X67.5 Y0 Z0.4 F300 ;Move to start position
G1 X167.5 E30 F400 ;Draw the first line
G1 Z0.6 F120.0 ;Move to side a little
G1 X162.5 F3000
G92 E0 ;Reset Extruder
M82 ;absolute extrusion mode
G92 E0
G92 E0
G1 F2700 E-0.5
;LAYER_COUNT:196
;LAYER:0
M107
M204 S500
G0 F7200 X100.021 Y97.237 Z0.2
;TYPE:SKIRT
G1 F2700 E0
G1 F3600 X102.163 Y95.36 E0.12433
G1 X105.352 Y93.245 E0.29137
G1 X108.238 Y91.862 E0.43108
G1 X110.866 Y90.977 E0.55213
G1 X114.562 Y90.256 E0.71652
G1 X117.85 Y90.082 E0.86025
G1 X120.701 Y90.283 E0.98502
G1 X124.172 Y90.992 E1.13967
G1 X127.36 Y92.112 E1.28718
G1 X129.868 Y93.365 E1.40957
G1 X132.857 Y95.378 E1.56688
G1 X135.316 Y97.576 E1.71086
G1 X137.274 Y99.836 E1.84139
G1 X139.247 Y102.828 E1.99784
G1 X140.474 Y105.34 E2.11989
G1 X141.552 Y108.491 E2.26527
G1 X142.244 Y112.062 E2.42405
G1 X142.418 Y115.344 E2.56753
G1 X142.226 Y118.118 E2.68891
G1 X141.48 Y121.783 E2.85219
G1 X140.547 Y124.477 E2.97664
G1 X138.923 Y127.725 E3.13517
G1 X137.167 Y130.301 E3.27126
G1 X134.933 Y132.808 E3.41785
G1 X132.837 Y134.64 E3.53937
G1 X129.648 Y136.755 E3.70642
G1 X126.762 Y138.138 E3.84612
G1 X124.136 Y139.023 E3.96709
G1 X120.654 Y139.718 E4.12209
G1 X117.134 Y139.918 E4.276
G1 X114.156 Y139.699 E4.40636
G1 X111.103 Y139.086 E4.54229
G1 X107.69 Y137.911 E4.69986
G1 X105.263 Y136.711 E4.81806
G1 X102.101 Y134.592 E4.98422
G1 X99.877 Y132.618 E5.11403
G1 X97.508 Y129.872 E5.27235
G1 X95.877 Y127.383 E5.40225
G1 X94.362 Y124.262 E5.5537
G1 X93.477 Y121.636 E5.67467
G1 X92.755 Y117.939 E5.83911
G1 X92.582 Y114.696 E5.98088
G1 X92.774 Y111.882 E6.10401
G1 X93.53 Y108.192 E6.26844
G1 X94.589 Y105.19 E6.4074
G1 X95.828 Y102.697 E6.52893
G1 X97.917 Y99.592 E6.6923
G1 X100.021 Y97.237 E6.83016
G0 F7200 X100.413 Y97.587
G1 F3600 X102.509 Y95.755 E6.95168
G1 X105.579 Y93.718 E7.11251
G1 X108.406 Y92.36 E7.24942
G1 X111.034 Y91.475 E7.37048
G1 X114.59 Y90.78 E7.52865
G1 X117.813 Y90.606 E7.66955
G1 X120.664 Y90.807 E7.79431
G1 X123.998 Y91.487 E7.94285
G1 X127.125 Y92.582 E8.08749
G1 X129.633 Y93.835 E8.20987
G1 X132.563 Y95.813 E8.3642
G1 X134.919 Y97.92 E8.50218
G1 X136.877 Y100.18 E8.63271
G1 X138.776 Y103.059 E8.78327
G1 X139.977 Y105.51 E8.90242
G1 X141.055 Y108.661 E9.0478
G1 X141.72 Y112.09 E9.20028
G1 X141.894 Y115.308 E9.34096
G1 X141.702 Y118.082 E9.46235
G1 X140.984 Y121.612 E9.6196
G1 X140.077 Y124.243 E9.74109
G1 X138.489 Y127.429 E9.89649
G1 X136.733 Y130.005 E10.03258
G1 X134.587 Y132.413 E10.17339
G1 X132.491 Y134.245 E10.29491
G1 X129.421 Y136.282 E10.45575
G1 X126.594 Y137.64 E10.59266
G1 X123.968 Y138.525 E10.71363
G1 X120.552 Y139.203 E10.86566
G1 X117.173 Y139.394 E11.0134
G1 X114.195 Y139.175 E11.14375
G1 X111.273 Y138.589 E11.27385
G1 X107.923 Y137.44 E11.42845
G1 X105.496 Y136.24 E11.54664
G1 X102.45 Y134.199 E11.7067
G1 X100.226 Y132.225 E11.83652
G1 X97.947 Y129.584 E11.9888
G1 X96.316 Y127.095 E12.1187
G1 X94.86 Y124.094 E12.26431
G1 X93.975 Y121.468 E12.38528
G1 X93.279 Y117.91 E12.54355
G1 X93.106 Y114.732 E12.68248
G1 X93.298 Y111.918 E12.80561
G1 X94.025 Y108.366 E12.96388
G1 X95.06 Y105.423 E13.10007
G1 X96.264 Y102.99 E13.21857
G1 X98.309 Y99.942 E13.37881
G1 X100.413 Y97.587 E13.51666
G0 F7200 X100.759 Y97.982
G1 F3600 X102.855 Y96.15 E13.63819
G1 X105.807 Y94.191 E13.79285
G1 X108.574 Y92.858 E13.92692
G1 X111.202 Y91.973 E14.04798
G1 X114.619 Y91.304 E14.19997
G1 X117.776 Y91.13 E14.338
G1 X120.627 Y91.331 E14.46276
G1 X123.825 Y91.983 E14.60524
G1 X126.89 Y93.052 E14.74695
G1 X129.398 Y94.305 E14.86933
G1 X132.214 Y96.205 E15.01763
G1 X134.522 Y98.264 E15.15265
G1 X136.48 Y100.524 E15.28318
G1 X138.305 Y103.291 E15.42788
G1 X139.48 Y105.68 E15.5441
G1 X140.558 Y108.831 E15.68948
G1 X141.196 Y112.119 E15.83569
G1 X141.37 Y115.272 E15.97354
G1 X141.178 Y118.046 E16.09493
G1 X140.487 Y121.442 E16.24621
G1 X139.607 Y124.009 E16.36467
G1 X138.055 Y127.133 E16.51695
G1 X136.299 Y129.709 E16.65305
G1 X134.241 Y132.018 E16.78807
G1 X132.145 Y133.85 E16.90959
G1 X129.193 Y135.809 E17.06425
G1 X126.426 Y137.142 E17.19833
G1 X123.8 Y138.027 E17.3193
G1 X120.45 Y138.688 E17.46836
G1 X117.212 Y138.87 E17.60993
G1 X114.234 Y138.651 E17.74029
G1 X111.443 Y138.092 E17.86454
G1 X108.156 Y136.969 E18.01618
G1 X105.729 Y135.769 E18.13437
G1 X102.798 Y133.806 E18.28836
G1 X100.623 Y131.882 E18.41513
G1 X98.386 Y129.296 E18.56439
G1 X96.755 Y126.807 E18.6943
G1 X95.358 Y123.926 E18.83407
G1 X94.473 Y121.3 E18.95504
G1 X93.803 Y117.881 E19.10713
G1 X93.63 Y114.768 E19.24324
G1 X93.822 Y111.954 E19.36637
G1 X94.52 Y108.54 E19.51848
G1 X95.531 Y105.656 E19.65189
G1 X96.735 Y103.223 E19.7704
G1 X98.701 Y100.291 E19.9245
G1 X100.759 Y97.982 E20.05952
G0 F7200 X101.105 Y98.377
G1 F3600 X103.201 Y96.545 E20.18105
G1 X106.035 Y94.664 E20.32953
G1 X108.742 Y93.356 E20.46078
G1 X111.37 Y92.471 E20.58183
G1 X114.649 Y91.828 E20.7277
G1 X117.739 Y91.654 E20.8628
G1 X120.59 Y91.855 E20.98757
G1 X123.653 Y92.479 E21.12402
G1 X126.655 Y93.522 E21.26276
G1 X129.163 Y94.775 E21.38515
G1 X131.865 Y96.597 E21.52741
G1 X134.125 Y98.608 E21.65947
G1 X136.083 Y100.868 E21.79001
G1 X137.834 Y103.524 E21.92888
G1 X138.983 Y105.85 E22.04213
G1 X140.061 Y109.001 E22.18751
G1 X140.672 Y112.149 E22.3275
G1 X140.846 Y115.236 E22.46247
G1 X140.654 Y118.01 E22.58386
G1 X139.99 Y121.272 E22.72918
G1 X139.11 Y123.839 E22.84764
G1 X137.621 Y126.838 E22.99381
G1 X135.907 Y129.36 E23.12692
G1 X133.895 Y131.623 E23.25911
G1 X131.799 Y133.455 E23.38063
G1 X128.965 Y135.336 E23.52912
G1 X126.258 Y136.644 E23.66036
G1 X123.632 Y137.529 E23.78133
G1 X120.349 Y138.173 E23.92738
G1 X117.251 Y138.346 E24.06283
G1 X114.273 Y138.127 E24.19318
G1 X111.612 Y137.595 E24.31164
G1 X108.389 Y136.498 E24.46026
G1 X105.962 Y135.298 E24.57846
G1 X103.145 Y133.412 E24.72645
G1 X101.02 Y131.538 E24.85013
G1 X98.825 Y129.008 E24.99635
G1 X97.194 Y126.519 E25.12625
G1 X95.856 Y123.758 E25.26019
G1 X94.971 Y121.132 E25.38116
G1 X94.327 Y117.851 E25.52712
G1 X94.154 Y114.804 E25.66035
G1 X94.346 Y111.99 E25.78347
G1 X95.016 Y108.713 E25.92949
G1 X96.002 Y105.889 E26.06006
G1 X97.206 Y103.456 E26.17857
G1 X99.093 Y100.64 E26.32654
G1 X101.105 Y98.377 E26.45873
G0 F7200 X101.451 Y98.772
G1 F3600 X103.547 Y96.94 E26.58026
G1 X106.264 Y95.136 E26.72263
G1 X108.91 Y93.854 E26.85098
G1 X111.538 Y92.969 E26.97203
G1 X114.679 Y92.352 E27.11177
G1 X117.702 Y92.178 E27.24395
G1 X120.553 Y92.379 E27.36872
G1 X123.481 Y92.975 E27.49916
G1 X126.42 Y93.992 E27.63492
G1 X128.928 Y95.245 E27.75731
G1 X131.517 Y96.99 E27.89361
G1 X133.729 Y98.952 E28.02268
G1 X135.645 Y101.158 E28.15023
G1 X137.363 Y103.757 E28.28623
G1 X138.512 Y106.083 E28.39949
G1 X139.564 Y109.17 E28.54186
G1 X140.148 Y112.179 E28.67566
G1 X140.322 Y115.2 E28.80776
G1 X140.13 Y117.974 E28.92915
G1 X139.493 Y121.102 E29.0685
G1 X138.613 Y123.669 E29.18696
G1 X137.186 Y126.544 E29.32707
G1 X135.514 Y129.012 E29.45721
G1 X133.549 Y131.228 E29.5865
G1 X131.453 Y133.06 E29.70802
G1 X128.736 Y134.864 E29.85039
G1 X126.09 Y136.146 E29.97875
G1 X123.464 Y137.031 E30.09972
G1 X120.319 Y137.649 E30.23963
G1 X117.29 Y137.822 E30.37208
G1 X114.312 Y137.603 E30.50243
G1 X111.716 Y137.08 E30.61803
G1 X108.622 Y136.027 E30.7607
G1 X106.195 Y134.827 E30.8789
G1 X103.492 Y133.018 E31.02088
G1 X101.416 Y131.193 E31.14154
G1 X99.264 Y128.72 E31.28465
G1 X97.666 Y126.289 E31.41165
G1 X96.354 Y123.59 E31.54265
G1 X95.469 Y120.964 E31.66362
G1 X94.851 Y117.821 E31.80346
G1 X94.678 Y114.84 E31.93381
G1 X94.87 Y112.026 E32.05694
G1 X95.512 Y108.885 E32.19689
G1 X96.473 Y106.122 E32.32459
G1 X97.677 Y103.689 E32.44309
G1 X99.486 Y100.988 E32.58501
G1 X101.451 Y98.772 E32.7143
G0 F7200 X101.797 Y99.167
G1 F3600 X103.893 Y97.335 E32.83582
G1 X106.493 Y95.608 E32.97208
G1 X109.078 Y94.352 E33.09754
G1 X111.706 Y93.467 E33.21859
G1 X114.71 Y92.876 E33.35224
G1 X117.665 Y92.702 E33.48146
G1 X120.516 Y92.903 E33.60623
G1 X123.31 Y93.471 E33.73069
G1 X126.185 Y94.462 E33.86344
G1 X128.693 Y95.715 E33.98583
G1 X131.169 Y97.383 E34.11616
G1 X133.333 Y99.297 E34.24227
G1 X135.207 Y101.448 E34.36681
G1 X136.892 Y103.99 E34.49994
G1 X138.041 Y106.316 E34.6132
G1 X139.067 Y109.339 E34.75255
G1 X139.624 Y112.21 E34.88022
G1 X139.798 Y115.164 E35.0094
G1 X139.606 Y117.938 E35.13079
G1 X138.996 Y120.932 E35.26417
G1 X138.116 Y123.499 E35.38263
G1 X136.751 Y126.25 E35.51669
G1 X135.121 Y128.664 E35.64385
G1 X133.203 Y130.833 E35.77024
G1 X131.107 Y132.665 E35.89177
G1 X128.507 Y134.392 E36.02802
G1 X125.922 Y135.648 E36.15348
G1 X123.296 Y136.533 E36.27445
G1 X120.288 Y137.125 E36.40828
G1 X117.328 Y137.298 E36.53772
G1 X114.416 Y137.088 E36.66517
G1 X111.82 Y136.565 E36.78077
G1 X108.855 Y135.556 E36.9175
G1 X106.428 Y134.356 E37.03569
G1 X103.838 Y132.623 E37.17173
G1 X101.812 Y130.848 E37.28931
G1 X99.703 Y128.432 E37.42931
G1 X98.105 Y126.001 E37.55631
G1 X96.852 Y123.422 E37.68148
G1 X95.967 Y120.796 E37.80245
G1 X95.375 Y117.79 E37.93619
G1 X95.202 Y114.876 E38.06362
G1 X95.394 Y112.062 E38.18675
G1 X96.008 Y109.057 E38.32064
G1 X96.944 Y106.355 E38.44547
G1 X98.148 Y103.922 E38.56397
G1 X99.879 Y101.336 E38.69982
G1 X101.797 Y99.167 E38.82621
G0 F7200 X102.143 Y99.562
G1 F3600 X104.239 Y97.73 E38.94774
G1 X106.723 Y96.08 E39.07792
G1 X109.246 Y94.85 E39.20045
G1 X111.874 Y93.965 E39.3215
G1 X114.742 Y93.4 E39.4491
G1 X117.628 Y93.226 E39.57532
G1 X120.479 Y93.427 E39.70008
G1 X123.14 Y93.968 E39.81862
G1 X125.95 Y94.932 E39.94831
G1 X128.458 Y96.185 E40.0707
G1 X130.822 Y97.777 E40.19511
G1 X132.938 Y99.643 E40.31827
G1 X134.77 Y101.739 E40.4398
G1 X136.421 Y104.223 E40.57
G1 X137.57 Y106.549 E40.68325
G1 X138.552 Y109.44 E40.81654
G1 X139.1 Y112.242 E40.94117
G1 X139.274 Y115.128 E41.06739
G1 X139.082 Y117.902 E41.18877
G1 X138.499 Y120.762 E41.31619
G1 X137.619 Y123.329 E41.43465
G1 X136.315 Y125.957 E41.56272
G1 X134.727 Y128.317 E41.68689
G1 X132.857 Y130.438 E41.81033
G1 X130.761 Y132.27 E41.93186
G1 X128.277 Y133.92 E42.06203
G1 X125.754 Y135.15 E42.18456
G1 X123.128 Y136.035 E42.30553
G1 X120.257 Y136.601 E42.43328
G1 X117.365 Y136.774 E42.55975
G1 X114.52 Y136.573 E42.68426
G1 X111.924 Y136.05 E42.79986
G1 X109.088 Y135.085 E42.93063
G1 X106.661 Y133.885 E43.04882
G1 X104.184 Y132.228 E43.17892
G1 X102.158 Y130.453 E43.2965
G1 X100.141 Y128.143 E43.43037
G1 X98.577 Y125.771 E43.5544
G1 X97.35 Y123.254 E43.67664
G1 X96.465 Y120.628 E43.79761
G1 X95.899 Y117.758 E43.92531
G1 X95.726 Y114.912 E44.04978
G1 X95.918 Y112.098 E44.17291
G1 X96.504 Y109.228 E44.30078
G1 X97.415 Y106.588 E44.42269
G1 X98.619 Y104.155 E44.5412
G1 X100.273 Y101.683 E44.67104
G1 X102.143 Y99.562 E44.79447
G0 F7200 X102.489 Y99.957
G1 F3600 X104.585 Y98.125 E44.916
G1 X106.954 Y96.552 E45.04014
G1 X109.414 Y95.348 E45.1597
G1 X112.042 Y94.463 E45.28075
G1 X114.774 Y93.924 E45.40231
G1 X117.592 Y93.75 E45.52556
G1 X120.375 Y93.942 E45.64734
G1 X122.97 Y94.465 E45.7629
G1 X125.716 Y95.402 E45.88956
G1 X128.165 Y96.621 E46.00898
G1 X130.475 Y98.171 E46.13042
G1 X132.543 Y99.989 E46.25062
G1 X134.375 Y102.085 E46.37214
G1 X135.95 Y104.456 E46.4964
G1 X137.099 Y106.782 E46.60965
G1 X138.037 Y109.542 E46.73691
G1 X138.576 Y112.274 E46.85847
G1 X138.75 Y115.092 E46.98172
G1 X138.558 Y117.866 E47.1031
G1 X138.002 Y120.592 E47.22455
G1 X137.122 Y123.159 E47.34302
G1 X135.879 Y125.665 E47.46513
G1 X134.333 Y127.97 E47.58629
G1 X132.511 Y130.043 E47.70677
G1 X130.415 Y131.875 E47.82829
G1 X128.046 Y133.448 E47.95243
G1 X125.586 Y134.652 E48.07199
G1 X122.96 Y135.537 E48.19296
G1 X120.225 Y136.077 E48.31466
G1 X117.401 Y136.25 E48.43817
G1 X114.624 Y136.058 E48.55969
G1 X112.028 Y135.535 E48.67529
G1 X109.321 Y134.614 E48.80011
G1 X106.894 Y133.414 E48.9183
G1 X104.53 Y131.833 E49.04245
G1 X102.504 Y130.058 E49.16004
G1 X100.579 Y127.853 E49.28781
G1 X99.049 Y125.54 E49.40888
G1 X97.848 Y123.086 E49.52815
G1 X96.963 Y120.46 E49.64912
G1 X96.423 Y117.725 E49.77081
G1 X96.25 Y114.948 E49.89228
G1 X96.442 Y112.134 E50.0154
G1 X97 Y109.399 E50.13726
G1 X97.886 Y106.821 E50.25626
G1 X99.09 Y104.388 E50.37476
G1 X100.667 Y102.03 E50.4986
G1 X102.489 Y99.957 E50.61908
G1 F2700 E50.11908
G0 F7200 X103.23 Y100.698
G1 F2700 E50.61908
G1 F3600 X105.222 Y98.957 E50.73457
G1 X107.418 Y97.494 E50.84976
G1 X109.751 Y96.342 E50.96334
G1 X112.247 Y95.493 E51.07843
G1 X114.841 Y94.972 E51.19393
G1 X117.523 Y94.798 E51.31126
G1 X120.167 Y94.972 E51.42693
G1 X122.762 Y95.495 E51.54249
G1 X125.251 Y96.343 E51.65728
G1 X127.582 Y97.494 E51.77076
G1 X129.783 Y98.961 E51.88623
G1 X131.802 Y100.73 E52.00341
G1 X133.543 Y102.722 E52.1189
G1 X135.008 Y104.922 E52.23429
G1 X136.157 Y107.248 E52.34754
G1 X137.007 Y109.747 E52.46277
G1 X137.528 Y112.341 E52.57827
G1 X137.702 Y115.022 E52.69555
G1 X137.528 Y117.659 E52.81092
G1 X137.008 Y120.253 E52.92641
G1 X136.154 Y122.757 E53.0419
G1 X135.006 Y125.082 E53.15509
G1 X133.543 Y127.278 E53.27028
G1 X131.77 Y129.302 E53.38774
G1 X129.778 Y131.043 E53.50323
G1 X127.582 Y132.506 E53.61842
G1 X125.249 Y133.658 E53.73201
G1 X122.753 Y134.507 E53.8471
G1 X120.158 Y135.029 E53.96265
G1 X117.471 Y135.202 E54.08019
G1 X114.832 Y135.028 E54.19564
G1 X112.236 Y134.505 E54.31125
G1 X109.786 Y133.672 E54.42421
G1 X107.418 Y132.506 E54.53944
G1 X105.222 Y131.043 E54.65463
G1 X103.196 Y129.268 E54.77221
G1 X101.453 Y127.272 E54.88789
G1 X99.991 Y125.076 E55.00306
G1 X98.842 Y122.749 E55.11635
G1 X97.993 Y120.253 E55.23144
G1 X97.471 Y117.658 E55.34699
G1 X97.298 Y115.017 E55.46253
G1 X97.472 Y112.341 E55.57959
G1 X97.994 Y109.738 E55.69548
G1 X98.828 Y107.286 E55.80855
G1 X99.998 Y104.912 E55.92408
G1 X101.457 Y102.722 E56.03896
G1 X103.23 Y100.698 E56.15642
G0 F7200 X102.835 Y100.352
G1 F3600 X104.931 Y98.52 E56.27794
G1 X107.186 Y97.023 E56.3961
G1 X109.582 Y95.845 E56.51265
G1 X112.144 Y94.978 E56.63072
G1 X114.807 Y94.448 E56.74925
G1 X117.557 Y94.274 E56.86954
G1 X120.271 Y94.457 E56.98829
G1 X122.866 Y94.98 E57.10385
G1 X125.483 Y95.872 E57.22454
G1 X127.873 Y97.057 E57.341
G1 X130.129 Y98.566 E57.45948
G1 X132.148 Y100.335 E57.57666
G1 X133.98 Y102.431 E57.69819
G1 X135.479 Y104.689 E57.8165
G1 X136.628 Y107.015 E57.92975
G1 X137.522 Y109.644 E58.05097
G1 X138.052 Y112.307 E58.1695
G1 X138.226 Y115.057 E58.28979
G1 X138.043 Y117.762 E58.40815
G1 X137.505 Y120.422 E58.52662
G1 X136.625 Y122.989 E58.64508
G1 X135.443 Y125.373 E58.76124
G1 X133.938 Y127.624 E58.87944
G1 X132.165 Y129.648 E58.9969
G1 X130.069 Y131.48 E59.11843
G1 X127.814 Y132.977 E59.23658
G1 X125.418 Y134.155 E59.35314
G1 X122.857 Y135.022 E59.47117
G1 X120.192 Y135.553 E59.58979
G1 X117.436 Y135.726 E59.71034
G1 X114.728 Y135.543 E59.82882
G1 X112.132 Y135.02 E59.94443
G1 X109.554 Y134.143 E60.0633
G1 X107.127 Y132.943 E60.18149
G1 X104.876 Y131.438 E60.2997
G1 X102.85 Y129.663 E60.41728
G1 X101.016 Y127.563 E60.53899
G1 X99.52 Y125.308 E60.65712
G1 X98.345 Y122.918 E60.77338
G1 X97.478 Y120.357 E60.89141
G1 X96.947 Y117.692 E61.01004
G1 X96.774 Y114.983 E61.12854
G1 X96.957 Y112.238 E61.24863
G1 X97.497 Y109.569 E61.36751
G1 X98.357 Y107.054 E61.48354
G1 X99.561 Y104.621 E61.60204
G1 X101.062 Y102.376 E61.71993
G1 X102.835 Y100.352 E61.83739
G1 F2700 E61.33739
G0 F7200 X103.655 Y101.155
G1 F2700 E61.83739
G1 F3600 X105.583 Y99.468 E61.94923
G1 X107.71 Y98.046 E62.06092
G1 X110.01 Y96.912 E62.17286
G1 X112.433 Y96.089 E62.28457
G1 X114.949 Y95.588 E62.39656
G1 X117.5 Y95.422 E62.50816
G1 X120.058 Y95.588 E62.62006
G1 X122.577 Y96.092 E62.7322
G1 X124.992 Y96.913 E62.84355
G1 X127.29 Y98.046 E62.9554
G1 X129.422 Y99.471 E63.06735
