;FLAVOR:Marlin
;TIME:2520
;Filament used: 4.66817m
;Layer height: 0.2
;MINX:98.102
;MINY:87.422
;MINZ:0.2
;MAXX:135.804
;MAXY:129.291
;MAXZ:81.6
;TARGET_MACHINE.NAME:ELEGOO NEPTUNE 4
;Generated with Cura_SteamEngine 5.10.0
;ELEGOO NEPTUNE 4 / 4 PRO
M220 S100 ;Set the feed speed to 100%
M221 S100 ;Set the flow rate to 100%
M104 S140 ;Start heating extruder
M190 S70 ;Wait for the bed to reach print temp
G90
G28 ;home
G1 Z10 F300
G1 X67.5 Y0 F6000
G1 Z0 F300
M109 S220.0 ;Wait for extruder to reach print temp
G92 E0 ;Reset Extruder
G1 X67.5 Y0 Z0.4 F300 ;Move to start position
G1 X167.5 E30 F400 ;Draw the first line
G1 Z0.6 F120.0 ;Move to side a little
G1 X162.5 F3000
G92 E0 ;Reset Extruder
M82 ;absolute extrusion mode
G92 E0
G92 E0
G1 F2700 E-0.5
;LAYER_COUNT:408
;LAYER:0
M107
M204 S500
G0 F7200 X101.795 Y104.15 Z0.2
;TYPE:SKIRT
G1 F2700 E0
G1 F3600 X102.613 Y103.561 E0.044
G1 X103.382 Y103.149 E0.08209
G1 X106.07 Y102.394 E0.20397
G1 X107.328 Y102.296 E0.25905
G1 X108.069 Y102.377 E0.29159
G1 X110.811 Y103.165 E0.41614
G1 X111.361 Y103.416 E0.44253
G1 X111.674 Y103.629 E0.45906
G1 X111.975 Y103.415 E0.47518
G1 X111.226 Y100.852 E0.59174
G1 X111.11 Y99.491 E0.65137
G1 X111.29 Y98.49 E0.69577
G1 X112.45 Y94.502 E0.87708
G1 X113.153 Y93.198 E0.94175
G1 X116.457 Y89.713 E1.15138
G1 X117.849 Y88.811 E1.22379
G1 X122.428 Y87.526 E1.43141
G1 X123.8 Y87.422 E1.49147
G1 X124.417 Y87.498 E1.51861
G1 X128.799 Y88.725 E1.71726
G1 X129.933 Y89.303 E1.77282
G1 X130.474 Y89.704 E1.80222
G1 X133.675 Y93.084 E2.00544
G1 X134.435 Y94.328 E2.06907
G1 X135.742 Y98.799 E2.27242
G1 X135.804 Y100.518 E2.34751
G1 X134.502 Y105.17 E2.55839
G1 X134.091 Y105.912 E2.59542
G1 X134.808 Y107.086 E2.65547
G1 X135.615 Y109.852 E2.78125
G1 X135.677 Y111.564 E2.85604
G1 X134.874 Y114.432 E2.98605
G1 X134.109 Y115.838 E3.05592
G1 X132.192 Y117.755 E3.17427
G1 X132.22 Y117.914 E3.18132
G1 X132.278 Y119.498 E3.25051
G1 X131.475 Y122.367 E3.38057
G1 X130.71 Y123.773 E3.45045
G1 X128.502 Y125.981 E3.58676
G1 X127.099 Y126.743 E3.65645
G1 X124.5 Y127.471 E3.77428
G1 X123.381 Y127.543 E3.82323
G1 X122.494 Y127.48 E3.86205
G1 X120.666 Y126.944 E3.94521
G1 X119.894 Y127.716 E3.99287
G1 X118.491 Y128.478 E4.06256
G1 X115.89 Y129.206 E4.18047
G1 X114.753 Y129.291 E4.23024
G1 X113.808 Y129.191 E4.27173
G1 X111.282 Y128.454 E4.38659
G1 X109.932 Y127.708 E4.45393
G1 X108.762 Y126.538 E4.52616
G1 X107.916 Y126.775 E4.56451
G1 X106.798 Y126.847 E4.61342
G1 X105.914 Y126.784 E4.6521
G1 X103.307 Y126.023 E4.77066
G1 X101.957 Y125.277 E4.83799
G1 X99.763 Y123.083 E4.97344
G1 X98.989 Y121.815 E5.03829
G1 X98.207 Y119.143 E5.15983
G1 X98.102 Y117.872 E5.2155
G1 X98.27 Y116.795 E5.26308
G1 X98.91 Y114.585 E5.36352
G1 X99.027 Y114.328 E5.37585
G1 X98.398 Y112.18 E5.47356
G1 X98.292 Y110.906 E5.52936
G1 X98.46 Y109.828 E5.57699
G1 X99.152 Y107.444 E5.68536
G1 X99.84 Y106.21 E5.74703
G1 X101.795 Y104.15 E5.87101
G0 F7200 X102.141 Y104.548
G1 F3600 X102.92 Y103.987 E5.91292
G1 X103.58 Y103.638 E5.94551
G1 X106.162 Y102.913 E6.06258
G1 X107.317 Y102.823 E6.11316
G1 X107.967 Y102.894 E6.1417
G1 X110.593 Y103.643 E6.26091
G1 X111.143 Y103.894 E6.2873
G1 X111.672 Y104.275 E6.31576
G1 X112.314 Y103.818 E6.35016
G1 X112.595 Y103.664 E6.36415
G1 X111.744 Y100.754 E6.4965
G1 X111.639 Y99.517 E6.55069
G1 X111.807 Y98.583 E6.59212
G1 X112.939 Y94.701 E6.76864
G1 X113.582 Y93.509 E6.82777
G1 X116.794 Y90.12 E7.0316
G1 X118.069 Y89.294 E7.09792
G1 X122.52 Y88.045 E7.29973
G1 X123.784 Y87.949 E7.35506
G1 X124.275 Y88.004 E7.37663
G1 X128.609 Y89.218 E7.57311
G1 X129.654 Y89.75 E7.6243
G1 X130.127 Y90.101 E7.65001
G1 X133.255 Y93.404 E7.8486
G1 X133.951 Y94.543 E7.90687
G1 X135.219 Y98.882 E8.10421
G1 X135.276 Y100.455 E8.17292
G1 X134.012 Y104.972 E8.37768
G1 X133.457 Y105.974 E8.42768
G1 X133.645 Y106.189 E8.44015
G1 X134.324 Y107.301 E8.49703
G1 X135.092 Y109.935 E8.6168
G1 X135.149 Y111.501 E8.68521
G1 X134.384 Y114.235 E8.80914
G1 X133.684 Y115.521 E8.87306
G1 X131.612 Y117.593 E9.00097
G1 X131.695 Y117.933 E9.01625
G1 X131.75 Y119.436 E9.08191
G1 X130.985 Y122.17 E9.20584
G1 X130.285 Y123.456 E9.26976
G1 X128.185 Y125.556 E9.3994
G1 X126.902 Y126.253 E9.46314
G1 X124.411 Y126.95 E9.57606
G1 X123.418 Y127.019 E9.61951
G1 X122.587 Y126.96 E9.65588
G1 X120.515 Y126.353 E9.75013
G1 X119.577 Y127.291 E9.80804
G1 X118.294 Y127.988 E9.87178
G1 X115.8 Y128.686 E9.98484
G1 X114.758 Y128.764 E10.03045
G1 X113.911 Y128.674 E10.06764
G1 X111.487 Y127.967 E10.17786
G1 X110.249 Y127.283 E10.23961
G1 X108.916 Y125.95 E10.3219
G1 X107.827 Y126.254 E10.37126
G1 X106.835 Y126.323 E10.41467
G1 X106.006 Y126.264 E10.45095
G1 X103.512 Y125.536 E10.56436
G1 X102.274 Y124.852 E10.62611
G1 X100.18 Y122.758 E10.75538
G1 X99.473 Y121.6 E10.81461
G1 X98.726 Y119.046 E10.93077
G1 X98.63 Y117.892 E10.98132
G1 X98.774 Y116.941 E11.02331
G1 X99.414 Y114.731 E11.12375
G1 X99.589 Y114.377 E11.14099
G1 X98.916 Y112.081 E11.24544
G1 X98.82 Y110.926 E11.29603
G1 X98.964 Y109.974 E11.33806
G1 X99.638 Y107.651 E11.44365
G1 X100.268 Y106.521 E11.50013
G1 X102.141 Y104.548 E11.61889
G0 F7200 X102.487 Y104.946
G1 F3600 X103.227 Y104.413 E11.6587
G1 X103.778 Y104.127 E11.6858
G1 X106.254 Y103.432 E11.79806
G1 X107.306 Y103.35 E11.84413
G1 X107.867 Y103.411 E11.86876
G1 X110.375 Y104.121 E11.98255
G1 X110.879 Y104.351 E12.00673
G1 X111.702 Y104.944 E12.05101
G1 X111.866 Y104.783 E12.06105
G1 X112.567 Y104.278 E12.09876
G1 X113.008 Y104.036 E12.12072
G1 X113.229 Y103.96 E12.13092
G1 X112.263 Y100.657 E12.28115
G1 X112.168 Y99.542 E12.33
G1 X112.311 Y98.73 E12.36599
G1 X113.428 Y94.901 E12.54011
G1 X114.011 Y93.82 E12.59373
G1 X117.131 Y90.527 E12.79176
G1 X118.289 Y89.777 E12.85198
G1 X122.612 Y88.564 E13.04799
G1 X123.824 Y88.472 E13.10105
G1 X124.133 Y88.51 E13.11464
G1 X128.42 Y89.711 E13.30899
G1 X129.348 Y90.177 E13.35432
G1 X129.746 Y90.462 E13.37569
G1 X132.835 Y93.724 E13.57181
G1 X133.467 Y94.758 E13.62471
G1 X134.696 Y98.965 E13.81604
G1 X134.748 Y100.392 E13.87837
G1 X133.522 Y104.774 E14.07701
G1 X132.948 Y105.811 E14.12875
G1 X132.775 Y106.019 E14.14056
G1 X133.197 Y106.463 E14.1673
G1 X133.84 Y107.516 E14.22116
G1 X134.569 Y110.018 E14.33492
G1 X134.621 Y111.438 E14.39695
G1 X133.893 Y114.039 E14.51486
G1 X133.259 Y115.204 E14.57276
G1 X131.321 Y117.142 E14.69241
G1 X130.993 Y117.345 E14.70925
G1 X131.17 Y117.952 E14.73685
G1 X131.222 Y119.373 E14.79892
G1 X130.494 Y121.974 E14.91683
G1 X129.86 Y123.139 E14.97473
G1 X127.868 Y125.131 E15.09771
G1 X126.705 Y125.763 E15.15549
G1 X124.321 Y126.43 E15.26356
G1 X123.382 Y126.495 E15.30464
G1 X122.684 Y126.441 E15.33521
G1 X120.365 Y125.761 E15.4407
G1 X119.26 Y126.866 E15.50892
G1 X118.097 Y127.498 E15.5667
G1 X115.71 Y128.166 E15.67491
G1 X114.764 Y128.237 E15.71632
G1 X114.013 Y128.157 E15.74929
G1 X111.688 Y127.479 E15.85501
G1 X110.568 Y126.86 E15.91088
G1 X109.07 Y125.362 E16.00336
G1 X107.737 Y125.734 E16.06377
G1 X106.799 Y125.799 E16.10482
G1 X106.101 Y125.745 E16.13538
G1 X103.713 Y125.048 E16.24397
G1 X102.593 Y124.429 E16.29983
G1 X100.597 Y122.433 E16.42306
G1 X99.957 Y121.385 E16.47667
G1 X99.244 Y118.949 E16.58747
G1 X99.158 Y117.909 E16.63302
G1 X99.278 Y117.087 E16.66929
G1 X99.918 Y114.877 E16.76973
G1 X100.171 Y114.398 E16.79337
G1 X100.089 Y114.219 E16.80197
G1 X99.435 Y111.984 E16.90363
G1 X99.348 Y110.942 E16.94927
G1 X99.468 Y110.12 E16.98554
G1 X100.125 Y107.854 E17.08853
G1 X100.694 Y106.835 E17.13948
G1 X102.487 Y104.946 E17.25317
G0 F7200 X102.833 Y105.344
G1 F3600 X103.534 Y104.839 E17.29089
G1 X103.974 Y104.617 E17.3124
G1 X106.346 Y103.951 E17.41995
G1 X107.299 Y103.877 E17.46168
G1 X107.724 Y103.916 E17.48031
G1 X110.232 Y104.626 E17.5941
G1 X110.612 Y104.806 E17.61245
G1 X111.32 Y105.316 E17.65054
G1 X111.702 Y105.706 E17.67438
G1 X112.173 Y105.209 E17.70427
G1 X112.874 Y104.704 E17.74198
G1 X113.257 Y104.498 E17.76097
G1 X113.882 Y104.323 E17.7893
G1 X112.782 Y100.56 E17.96044
G1 X112.697 Y99.564 E18.00408
G1 X112.815 Y98.877 E18.03451
G1 X113.917 Y95.101 E18.20622
G1 X114.44 Y94.131 E18.25433
G1 X117.467 Y90.936 E18.44646
G1 X118.508 Y90.261 E18.50062
G1 X122.709 Y89.083 E18.69109
G1 X123.809 Y88.999 E18.73925
G1 X123.991 Y89.016 E18.74723
G1 X128.232 Y90.204 E18.93949
G1 X129.112 Y90.646 E18.98248
G1 X129.365 Y90.823 E18.99596
G1 X132.415 Y94.044 E19.1896
G1 X132.983 Y94.973 E19.23714
G1 X134.173 Y99.048 E19.42245
G1 X134.22 Y100.33 E19.47846
G1 X133.032 Y104.576 E19.67093
G1 X132.489 Y105.557 E19.71988
G1 X132.053 Y106.022 E19.7477
G1 X132.781 Y106.788 E19.79383
G1 X133.355 Y107.729 E19.84195
G1 X134.046 Y110.101 E19.9498
G1 X134.093 Y111.376 E20.0055
G1 X133.403 Y113.842 E20.11729
G1 X132.834 Y114.887 E20.16923
G1 X130.95 Y116.771 E20.28554
G1 X130.37 Y117.086 E20.31435
G1 X130.647 Y118.035 E20.35751
G1 X130.694 Y119.311 E20.41325
G1 X130.004 Y121.777 E20.52503
G1 X129.435 Y122.822 E20.57698
G1 X127.551 Y124.706 E20.69329
G1 X126.508 Y125.273 E20.74511
G1 X124.228 Y125.911 E20.84846
G1 X123.423 Y125.972 E20.88371
G1 X122.781 Y125.922 E20.91182
G1 X120.555 Y125.273 E21.01304
G1 X120.259 Y125.125 E21.02748
G1 X118.943 Y126.441 E21.10873
G1 X117.9 Y127.008 E21.16055
G1 X115.62 Y127.646 E21.26391
G1 X114.77 Y127.71 E21.30112
G1 X114.115 Y127.64 E21.32987
G1 X111.893 Y126.992 E21.43091
G1 X110.885 Y126.435 E21.48119
G1 X109.224 Y124.774 E21.58373
G1 X107.644 Y125.215 E21.65534
G1 X106.84 Y125.276 E21.69054
G1 X106.198 Y125.226 E21.71865
G1 X103.918 Y124.561 E21.82233
G1 X102.91 Y124.004 E21.8726
G1 X101.012 Y122.106 E21.98978
G1 X100.442 Y121.172 E22.03754
G1 X99.763 Y118.852 E22.14307
G1 X99.686 Y117.926 E22.18363
G1 X99.782 Y117.233 E22.21417
G1 X100.422 Y115.023 E22.31461
G1 X100.768 Y114.407 E22.34545
G1 X100.593 Y114.071 E22.36199
G1 X99.953 Y111.885 E22.46142
G1 X99.876 Y110.959 E22.50199
G1 X99.972 Y110.266 E22.53253
G1 X100.612 Y108.058 E22.63288
G1 X101.12 Y107.149 E22.67834
G1 X102.833 Y105.344 E22.78697
G0 F7200 X103.179 Y105.742
G1 F3600 X103.841 Y105.265 E22.82259
G1 X104.116 Y105.122 E22.83612
G1 X106.437 Y104.47 E22.94137
G1 X107.266 Y104.401 E22.97768
G1 X107.582 Y104.421 E22.9915
G1 X110.021 Y105.107 E23.1021
G1 X110.305 Y105.232 E23.11565
G1 X111.013 Y105.742 E23.15374
G1 X111.701 Y106.469 E23.19744
G1 X112.519 Y105.607 E23.24931
G1 X113.181 Y105.13 E23.28493
G1 X113.456 Y104.987 E23.29846
G1 X114.621 Y104.66 E23.35128
G1 X114.426 Y104.314 E23.36862
G1 X113.301 Y100.463 E23.54376
G1 X113.226 Y99.587 E23.58214
G1 X113.319 Y99.024 E23.60705
G1 X114.406 Y95.301 E23.77636
G1 X114.869 Y94.442 E23.81896
G1 X117.803 Y91.345 E24.00519
G1 X118.73 Y90.744 E24.05342
G1 X122.801 Y89.602 E24.23799
G1 X123.849 Y89.522 E24.28388
G1 X128.044 Y90.697 E24.47405
G1 X128.876 Y91.115 E24.5147
G1 X129.021 Y91.223 E24.52259
G1 X131.995 Y94.364 E24.71142
G1 X132.499 Y95.188 E24.75359
G1 X133.65 Y99.131 E24.9329
G1 X133.692 Y100.268 E24.98257
G1 X132.542 Y104.378 E25.16887
G1 X132.03 Y105.303 E25.21503
G1 X131.32 Y106.013 E25.25886
G1 X132.365 Y107.113 E25.32509
G1 X132.87 Y107.941 E25.36743
G1 X133.523 Y110.184 E25.46941
G1 X133.565 Y111.313 E25.51873
G1 X132.912 Y113.646 E25.62449
G1 X132.409 Y114.57 E25.67042
G1 X130.633 Y116.346 E25.78006
G1 X129.748 Y116.827 E25.82403
G1 X130.124 Y118.118 E25.88273
G1 X130.166 Y119.248 E25.93209
G1 X129.513 Y121.581 E26.03785
G1 X129.01 Y122.505 E26.08378
G1 X127.234 Y124.281 E26.19342
G1 X126.311 Y124.783 E26.23929
G1 X124.138 Y125.391 E26.33779
G1 X123.383 Y125.448 E26.37084
G1 X122.876 Y125.403 E26.39306
G1 X120.702 Y124.769 E26.49192
G1 X120.168 Y124.474 E26.51855
G1 X118.626 Y126.016 E26.61375
G1 X117.703 Y126.518 E26.65961
G1 X115.53 Y127.126 E26.75812
G1 X114.775 Y127.183 E26.79117
G1 X114.217 Y127.123 E26.81567
G1 X112.098 Y126.505 E26.91202
G1 X111.202 Y126.01 E26.95671
G1 X109.378 Y124.186 E27.06932
G1 X107.554 Y124.695 E27.15198
G1 X106.8 Y124.752 E27.18499
G1 X106.293 Y124.707 E27.20721
G1 X104.123 Y124.074 E27.30589
G1 X103.227 Y123.579 E27.35058
G1 X101.429 Y121.781 E27.46158
G1 X100.926 Y120.957 E27.50372
G1 X100.282 Y118.755 E27.60387
G1 X100.214 Y117.942 E27.63949
G1 X100.286 Y117.379 E27.66426
G1 X100.909 Y115.229 E27.76198
G1 X101.371 Y114.405 E27.80322
G1 X101.097 Y113.924 E27.82739
G1 X100.472 Y111.788 E27.92454
G1 X100.404 Y110.975 E27.96015
G1 X100.476 Y110.412 E27.98493
G1 X101.099 Y108.262 E28.08265
G1 X101.546 Y107.463 E28.12262
G1 X103.179 Y105.742 E28.22618
G0 F7200 X103.525 Y106.14
G1 F3600 X104.148 Y105.691 E28.25971
G1 X104.313 Y105.612 E28.26769
G1 X106.529 Y104.989 E28.36818
G1 X107.31 Y104.924 E28.40239
G1 X107.496 Y104.942 E28.41055
G1 X109.879 Y105.612 E28.51861
G1 X110.044 Y105.691 E28.5266
G1 X110.667 Y106.14 E28.56012
G1 X111.701 Y107.232 E28.62577
G1 X112.865 Y106.005 E28.6996
G1 X113.488 Y105.556 E28.73312
G1 X113.653 Y105.477 E28.74111
G1 X115.443 Y104.974 E28.82228
G1 X114.93 Y104.167 E28.86402
G1 X113.819 Y100.366 E29.03689
G1 X113.755 Y99.609 E29.07006
G1 X113.823 Y99.171 E29.0894
G1 X114.895 Y95.501 E29.25631
G1 X115.298 Y94.753 E29.2934
G1 X118.141 Y91.751 E29.47389
G1 X118.946 Y91.229 E29.51577
G1 X122.898 Y90.121 E29.69495
G1 X123.794 Y90.052 E29.73418
G1 X127.856 Y91.19 E29.91833
G1 X128.64 Y91.584 E29.95663
G1 X131.575 Y94.684 E30.14299
G1 X132.015 Y95.403 E30.17978
G1 X133.127 Y99.214 E30.35309
G1 X133.164 Y100.206 E30.39642
G1 X132.052 Y104.18 E30.57657
G1 X131.607 Y104.984 E30.61668
G1 X130.587 Y106.004 E30.67965
G1 X131.947 Y107.436 E30.76586
G1 X132.386 Y108.155 E30.80264
G1 X133 Y110.267 E30.89865
G1 X133.037 Y111.251 E30.94164
G1 X132.422 Y113.449 E31.04128
G1 X131.984 Y114.253 E31.08124
G1 X130.316 Y115.921 E31.18422
G1 X129.513 Y116.359 E31.22415
G1 X129.099 Y116.475 E31.24292
G1 X129.601 Y118.201 E31.32139
G1 X129.638 Y119.186 E31.36442
G1 X129.023 Y121.384 E31.46405
G1 X128.585 Y122.188 E31.50402
G1 X126.917 Y123.856 E31.607
G1 X126.114 Y124.293 E31.64691
G1 X124.047 Y124.871 E31.7406
G1 X123.344 Y124.924 E31.77138
G1 X123.023 Y124.899 E31.78543
G1 X120.907 Y124.282 E31.88165
G1 X120.192 Y123.887 E31.91731
G1 X120.056 Y123.779 E31.92489
G1 X119.923 Y123.977 E31.9353
G1 X118.309 Y125.591 E32.03494
G1 X117.506 Y126.028 E32.07485
G1 X115.439 Y126.606 E32.16855
G1 X114.736 Y126.659 E32.19932
G1 X114.364 Y126.619 E32.21566
G1 X112.299 Y126.017 E32.30955
G1 X111.521 Y125.587 E32.34836
G1 X109.864 Y123.93 E32.45065
G1 X109.629 Y123.57 E32.46942
G1 X107.464 Y124.175 E32.56755
G1 X106.761 Y124.228 E32.59833
G1 X106.44 Y124.203 E32.61238
G1 X104.324 Y123.586 E32.7086
G1 X103.546 Y123.156 E32.74741
G1 X101.844 Y121.454 E32.85248
G1 X101.411 Y120.744 E32.88879
G1 X100.801 Y118.658 E32.98366
G1 X100.737 Y117.898 E33.01696
G1 X100.805 Y117.46 E33.03631
G1 X101.396 Y115.434 E33.12843
G1 X101.752 Y114.799 E33.16021
G1 X102.031 Y114.482 E33.17865
G1 X101.601 Y113.777 E33.2147
G1 X100.991 Y111.691 E33.30957
G1 X100.927 Y110.931 E33.34287
G1 X100.995 Y110.493 E33.36222
G1 X101.586 Y108.467 E33.45435
G1 X101.973 Y107.776 E33.48892
G1 X103.525 Y106.14 E33.58736
G0 F7200 X103.871 Y106.538
G1 F3600 X104.455 Y106.117 E33.61879
G1 X106.621 Y105.508 E33.71701
G1 X107.354 Y105.447 E33.74912
G1 X109.737 Y106.117 E33.85718
G1 X110.321 Y106.538 E33.88861
G1 X111.7 Y107.995 E33.97618
G1 X113.211 Y106.403 E34.072
G1 X113.795 Y105.982 E34.10343
G1 X115.962 Y105.373 E34.20169
G1 X116.557 Y105.324 E34.22775
G1 X115.818 Y104.585 E34.27337
G1 X115.413 Y103.948 E34.30633
G1 X114.337 Y100.269 E34.47366
G1 X114.283 Y99.629 E34.50169
G1 X114.327 Y99.318 E34.51541
G1 X115.384 Y95.7 E34.67995
G1 X115.727 Y95.063 E34.71153
G1 X118.477 Y92.16 E34.88609
G1 X119.168 Y91.712 E34.92204
G1 X122.99 Y90.64 E35.09532
G1 X123.739 Y90.582 E35.12812
G1 X127.668 Y91.683 E35.30624
G1 X128.322 Y92.012 E35.3382
G1 X131.155 Y95.004 E35.51807
G1 X131.531 Y95.618 E35.5495
G1 X132.604 Y99.297 E35.7168
G1 X132.636 Y100.143 E35.75376
G1 X131.561 Y103.983 E35.92783
G1 X131.184 Y104.665 E35.96185
G1 X129.805 Y106.044 E36.04698
G1 X130.148 Y106.303 E36.06575
G1 X131.527 Y107.756 E36.15319
G1 X131.902 Y108.37 E36.1846
G1 X132.477 Y110.349 E36.27456
G1 X132.509 Y111.188 E36.31122
